!!!!SEGMENT: pl-cz--d-ii-27_elsner-jozef--gloria-et-honore.krn
!!!cenid: 18xx:173
!!!COM: Elsner, Józef
!!!COM-rismid: pe30000957
!!!CDT: 1769/06/01-1854/04/18
!!!CNT: Polish
!!!OTL: Gloria et honore
!!!PDT:
!!!AGN: Sacred
!!!SMS-siglum: PL-CZ
!!!SMS-shelfmark: D II-27
!!!SMS-shelfwork: W
!!!NIFC-rismid:
!!!URL-scan: http://repozytorium.nifc.pl/skany/pl-cz-nut--dii-27
!!!ONB-nifc:
!!!OMD: Motette.
!!!AIN: 2 alto 2 bass 2 tenor 2 vox
!!!key:
**kern	**text	**kern	**text	**kern	**text	**kern	**text	**dynam	**kern	**text	**kern	**text	**dynam	**kern	**text	**kern	**text	**dynam
*part8	*part8	*part7	*part7	*part6	*part6	*part5	*part5	*part5	*part4	*part4	*part3	*part3	*part3	*part2	*part2	*part1	*part1	*part1
*group2	*	*group2	*	*group2	*	*group2	*	*	*group1	*	*group1	*	*	*group1	*	*group1	*	*
*staff8	*staff8	*staff7	*staff7	*staff6	*staff6	*staff5	*staff5	*	*staff4	*staff4	*staff3	*staff3	*	*staff2	*staff2	*staff1	*staff1	*
*Ibass	*	*Itenor	*	*Ialto	*	*Ivox	*	*	*Ibass	*	*Itenor	*	*	*Ialto	*	*Ivox	*	*
*I"Basso.	*	*I"Tenore.	*	*I"Alto.	*	*I"Canto.	*	*	*I"Basso.	*	*I"Tenore.	*	*	*I"Alto.	*	*I"Canto.	*	*
*I'B.	*	*I'T.	*	*I'A.	*	*I'S.	*	*	*I'B.	*	*I'T.	*	*	*I'A.	*	*I'S.	*	*
*clefF4	*	*clefC4	*	*clefC3	*	*clefC1	*	*	*clefF4	*	*clefC4	*	*	*clefC3	*	*clefC1	*	*
*k[]	*	*k[]	*	*k[]	*	*k[]	*	*	*k[]	*	*k[]	*	*	*k[]	*	*k[]	*	*
*C:	*	*C:	*	*C:	*	*C:	*	*	*C:	*	*C:	*	*	*C:	*	*C:	*	*
*M4/4	*	*M4/4	*	*M4/4	*	*M4/4	*	*	*M4/4	*	*M4/4	*	*	*M4/4	*	*M4/4	*	*
*met(c)	*	*met(c)	*	*met(c)	*	*met(c)	*	*	*met(c)	*	*met(c)	*	*	*met(c)	*	*met(c)	*	*
=1	=1	=1	=1	=1	=1	=1	=1	=1	=1	=1	=1	=1	=1	=1	=1	=1	=1	=1
!	!	!	!	!	!	!	!	!	!	!	!	!	!	!	!	!LO:TX:a:B:t=Coro I.	!	!
!	!	!	!	!	!	!LO:TX:a:B:t=Coro II.	!	!	!	!	!	!	!	!	!	!LO:TX:a:B:t=All-o moderato.	!	!
!	!	!	!	!	!	!	!	!	!	!	!	!	!	!	!	!	!	!LO:DY:b:rj
!	!	!	!	!	!	!	!	!	!	!	!	!	!	!	!	!	!	!LO:HP:b
*	*	*	*	*	*	*	*	*	*	*ij	*	*ij	*	*	*ij	*	*	*
1r	.	1r	.	1r	.	1r	.	.	2.C/	Glo-	2.e\	Glo-	.	2.g\	Glo-	2.cc\	Glo-	p <
.	.	.	.	.	.	.	.	.	4C/	-ri-	4e\	-ri-	.	4g\	-ri-	4cc\	-ri-	.
=2	=2	=2	=2	=2	=2	=2	=2	=2	=2	=2	=2	=2	=2	=2	=2	=2	=2	=2
!	!	!	!	!	!	!	!	!LO:DY:b	!	!	!	!	!	!	!	!	!	!
*	*ij	*	*ij	*	*ij	*	*	*	*	*	*	*	*	*	*	*	*	*
2.C/	Glo-	2.e\	Glo-	2.g\	Glo-	2.cc\	Glo-	p <	2C/	-a	2e\	-a	.	2g\	-a	2cc\	-a	[
.	.	.	.	.	.	.	.	.	2r	.	2r	.	.	2r	.	2r	.	.
4C/	-ri-	4e\	-ri-	4g\	-ri-	4cc\	-ri-	.	.	.	.	.	.	.	.	.	.	.
=3	=3	=3	=3	=3	=3	=3	=3	=3	=3	=3	=3	=3	=3	=3	=3	=3	=3	=3
!	!	!	!	!	!	!	!	!	!	!	!	!	!	!	!	!	!	!LO:DY:a:rj
!	!	!	!	!	!	!	!	!	!	!	!	!	!	!	!	!	!	!LO:HP:b
2C/	-a	2e\	-a	2g\	-a	2cc\	-a	[	2.C/	Glo-	2.c\	Glo-	.	2.g\	Glo-	2.ee\	Glo-	mf <
2r	.	2r	.	2r	.	2r	.	.	.	.	.	.	.	.	.	.	.	.
.	.	.	.	.	.	.	.	.	4C/	-ri-	4c\	-ri-	.	4g\	-ri-	4ee\	-ri-	.
=4	=4	=4	=4	=4	=4	=4	=4	=4	=4	=4	=4	=4	=4	=4	=4	=4	=4	=4
!	!	!	!	!	!	!LO:TX:b:t=P:problem=uszkodzony papier, ale prawdopodobnie jest oznaczenie "mf"	!	!LO:DY:b	!	!	!	!	!	!	!	!	!	!
2.C/	Glo-	2.c\	Glo-	2.g\	Glo-	2.ee\	Glo-	mf <	2C/	-a	2c\	-a	.	2g\	-a	2ee\	-a	[
.	.	.	.	.	.	.	.	.	2r	.	2r	.	.	2r	.	2r	.	.
4C/	-ri-	4c\	-ri-	4g\	-ri-	4ee\	-ri-	.	.	.	.	.	.	.	.	.	.	.
=5	=5	=5	=5	=5	=5	=5	=5	=5	=5	=5	=5	=5	=5	=5	=5	=5	=5	=5
!	!	!	!	!	!	!	!	!	!	!	!	!	!	!	!	!	!	!LO:HP:b
2C/	-a	2c\	-a	2g\	-a	2ee\	-a	[	2C/	Glo-	2G/	Glo-	.	2e\	Glo-	2cc\	Glo-	<
2r	.	2r	.	2r	.	2r	.	.	4BB/	-ri-	4G/	-ri-	.	4f\	-ri-	4dd\	-ri-	.
.	.	.	.	.	.	.	.	.	4BB-X/	-a	4c\	-a	.	4g\	-a	4ee\	-a	.
=6	=6	=6	=6	=6	=6	=6	=6	=6	=6	=6	=6	=6	=6	=6	=6	=6	=6	=6
1r	.	1r	.	1r	.	1r	.	.	2AA/	et	2c\	et	.	2f\	et	2ff\	et	[
.	.	.	.	.	.	.	.	.	2C/	ho-	2c\	ho-	.	2e\	ho-	2gg\	ho-	.
=7	=7	=7	=7	=7	=7	=7	=7	=7	=7	=7	=7	=7	=7	=7	=7	=7	=7	=7
!	!	!	!	!	!	!	!	!LO:DY:a:rj	!	!	!	!	!	!	!	!	!	!
2F\	et	2c\	et	2f\	et	2a\	et	f	[1F	-no-	[1c	-no-	.	[1f	-no-	[1aa	-no-	.
2F\	ho-	2c\	ho-	2a\	ho-	2cc\	ho-	.	.	.	.	.	.	.	.	.	.	.
=8	=8	=8	=8	=8	=8	=8	=8	=8	=8	=8	=8	=8	=8	=8	=8	=8	=8	=8
[1F	-no-	[1c	-no-	[1a	-no-	[1ff	-no-	.	2F\]	-re	2c\]	-re	.	2f\]	-re	2aa\]	-re	.
.	.	.	.	.	.	.	.	.	2r	.	2r	.	.	2r	.	2r	.	.
=9	=9	=9	=9	=9	=9	=9	=9	=9	=9	=9	=9	=9	=9	=9	=9	=9	=9	=9
2F\]	-re	2c\]	-re	2a\]	-re	2ff\]	-re	.	2r	.	2r	.	.	2r	.	2r	.	.
!	!	!	!	!	!	!	!	!	!	!	!	!	!	!	!	!LO:TX:a:B:t=dol.	!	!
2r	.	2r	.	2r	.	2r	.	.	4A\	co-	4c\	co-	.	4f\	co-	4ff\	co-	.
.	.	.	.	.	.	.	.	.	4A\	-ro-	4c\	-ro-	.	4f\	-ro-	4ff\	-ro-	.
=10	=10	=10	=10	=10	=10	=10	=10	=10	=10	=10	=10	=10	=10	=10	=10	=10	=10	=10
1r	.	1r	.	1r	.	1r	.	.	2B\	-nas-	2d\	-nas-	.	2g\	-nas-	2ff\	-nas-	.
.	.	.	.	.	.	.	.	.	2c\	-ti	[2c\	-ti	.	2g\	-ti	2ee\	-ti	.
=11	=11	=11	=11	=11	=11	=11	=11	=11	=11	=11	=11	=11	=11	=11	=11	=11	=11	=11
!!LO:LB:g=original
1r	.	1r	.	1r	.	1r	.	.	1G	E-	2c\]	E-	.	2.g\	E-	1dd	E-	.
.	.	.	.	.	.	.	.	.	.	.	2B\	.	.	.	.	.	.	.
.	.	.	.	.	.	.	.	.	.	.	.	.	.	4f\	.	.	.	.
=12	=12	=12	=12	=12	=12	=12	=12	=12	=12	=12	=12	=12	=12	=12	=12	=12	=12	=12
2r	.	2r	.	2r	.	2r	.	.	2A\	-um	2c\	-um	.	2e\	-um	2cc\	-um	.
!	!	!	!	!	!	!LO:TX:a:B:t=dol.	!	!	!	!	!	!	!	!	!	!	!	!
4A\	co-	4c\	co-	4cc\	co-	4ee\	co-	.	2r	.	2r	.	.	2r	.	2r	.	.
4A\	-ro-	4c\	-ro-	4cc\	-ro-	4ee\	-ro-	.	.	.	.	.	.	.	.	.	.	.
=13	=13	=13	=13	=13	=13	=13	=13	=13	=13	=13	=13	=13	=13	=13	=13	=13	=13	=13
2F\	-nas-	2c\	-nas-	2a\	-nas-	2ee\	-nas-	.	1r	.	1r	.	.	1r	.	1r	.	.
2F\	-ti	2d\	-ti	2a\	-ti	2dd\	-ti	.	.	.	.	.	.	.	.	.	.	.
=14	=14	=14	=14	=14	=14	=14	=14	=14	=14	=14	=14	=14	=14	=14	=14	=14	=14	=14
1G	E-	(2e\	E-	(2.g\	E-	(2cc\	E-	.	1r	.	1r	.	.	1r	.	1r	.	.
.	.	2d\)	.	.	.	2b\)	.	.	.	.	.	.	.	.	.	.	.	.
.	.	.	.	4f\)	.	.	.	.	.	.	.	.	.	.	.	.	.	.
=15	=15	=15	=15	=15	=15	=15	=15	=15	=15	=15	=15	=15	=15	=15	=15	=15	=15	=15
2C/	-um	2c\	-um	2e\	-um	2cc\	-um	.	4r	.	4r	.	.	4r	.	4r	.	f
.	.	.	.	.	.	.	.	.	8C/	All-	8c\	All-	.	8g\	All-	8ee\	All-	.
.	.	.	.	.	.	.	.	.	8C/	-le-	8c\	-le-	.	8g\	-le-	8ee\	-le-	.
2r	.	2r	.	2r	.	2r	.	.	2C/	-lu-	2c\	-lu-	.	2g\	-lu-	2ee\	-lu-	.
=16	=16	=16	=16	=16	=16	=16	=16	=16	=16	=16	=16	=16	=16	=16	=16	=16	=16	=16
4r	.	4r	.	4r	.	4r	.	.	4C/	-ja.	4c\	-ja.	.	4g\	-ja.	4ee\	-ja.	.
.	.	.	.	.	.	.	.	f	.	.	.	.	.	.	.	.	.	.
8C/	Al-	8e\	Al-	8g\	Al-	8cc\	Al-	.	4r	.	4r	.	.	4r	.	4r	.	.
8C/	-le-	8e\	-le-	8g\	-le-	8cc\	-le-	.	.	.	.	.	.	.	.	.	.	.
2C/	-lu-	2e\	-lu-	2g\	-lu-	2cc\	-lu-	.	2r	.	2r	.	.	2r	.	2r	.	.
=17	=17	=17	=17	=17	=17	=17	=17	=17	=17	=17	=17	=17	=17	=17	=17	=17	=17	=17
!	!	!	!	!	!	!	!	!	!	!	!	!	!	!	!	!LO:TX:a:B:t=mezza voce	!	!
4C/	-ja	4e\	-ja	4g\	-ja	4cc\	-ja	.	1c	Et	1c	Et	.	1cc	Et	1cc	Et	.
*	*Xij	*	*Xij	*	*Xij	*	*	*	*	*	*	*	*	*	*	*	*	*
8C/L	Al-	4r	.	4r	.	4r	.	.	.	.	.	.	.	.	.	.	.	.
8D/J	.	.	.	.	.	.	.	.	.	.	.	.	.	.	.	.	.	.
4E\	-le-	2r	.	2r	.	2r	.	.	.	.	.	.	.	.	.	.	.	.
4F\	-lu-	.	.	.	.	.	.	.	.	.	.	.	.	.	.	.	.	.
=18	=18	=18	=18	=18	=18	=18	=18	=18	=18	=18	=18	=18	=18	=18	=18	=18	=18	=18
2G\	-ja	4r	.	1r	.	1r	.	.	1B	con-	1B	con-	.	1b	con-	1b	con-	.
.	.	8G\L	Al-	.	.	.	.	.	.	.	.	.	.	.	.	.	.	.
.	.	8A\J	.	.	.	.	.	.	.	.	.	.	.	.	.	.	.	.
(2G\	Al-	4B\	-le-	.	.	.	.	.	.	.	.	.	.	.	.	.	.	.
.	.	4c\	-lu-	.	.	.	.	.	.	.	.	.	.	.	.	.	.	.
=19	=19	=19	=19	=19	=19	=19	=19	=19	=19	=19	=19	=19	=19	=19	=19	=19	=19	=19
4G\	.	2.d\	-ja	1r	.	1r	.	.	1A	-sti-	1A	-sti-	.	1a	-sti-	1a	-sti-	.
8F#X\L)	-le-	.	.	.	.	.	.	.	.	.	.	.	.	.	.	.	.	.
8E\J	.	.	.	.	.	.	.	.	.	.	.	.	.	.	.	.	.	.
2F#\	-luja	.	.	.	.	.	.	.	.	.	.	.	.	.	.	.	.	.
.	.	4c\	Al-	.	.	.	.	.	.	.	.	.	.	.	.	.	.	.
=20	=20	=20	=20	=20	=20	=20	=20	=20	=20	=20	=20	=20	=20	=20	=20	=20	=20	=20
2G\	.	4c\	.	4r	.	1r	.	.	1d	-tu-	1d	-tu-	.	1dd	-tu-	1dd	-tu-	.
.	.	4B\	.	8d\L	Al-	.	.	.	.	.	.	.	.	.	.	.	.	.
.	.	.	.	8e\J	.	.	.	.	.	.	.	.	.	.	.	.	.	.
2D\	Al-	4A\	-le-	4f#X\	-le-	.	.	.	.	.	.	.	.	.	.	.	.	.
.	.	8G\L	-lu-	8e\L	-lu-	.	.	.	.	.	.	.	.	.	.	.	.	.
.	.	8A\J	.	8f#\J	.	.	.	.	.	.	.	.	.	.	.	.	.	.
=21	=21	=21	=21	=21	=21	=21	=21	=21	=21	=21	=21	=21	=21	=21	=21	=21	=21	=21
!!LO:PB:g=original
2E\	.	4G/	-ja	2g\	-ja	4r	.	.	1B	-is-	1B	-is-	.	1b	-is-	1b	-is-	.
.	.	(8B\L	Al-	.	.	(8g\L	Al-	.	.	.	.	.	.	.	.	.	.	.
.	.	8c\J)	.	.	.	8a\J)	.	.	.	.	.	.	.	.	.	.	.	.
2D\	.	4d\	-le-	[2g\	Al-	(4b\	-le-	.	.	.	.	.	.	.	.	.	.	.
.	.	(8A\L	.	.	.	8cc\L	.	.	.	.	.	.	.	.	.	.	.	.
.	.	8B\J)	.	.	.	8dd\J	.	.	.	.	.	.	.	.	.	.	.	.
=22	=22	=22	=22	=22	=22	=22	=22	=22	=22	=22	=22	=22	=22	=22	=22	=22	=22	=22
2C/	.	2.c\	.	4g\]	.	2ee\	.	.	1A	-ti	1A	-ti	.	1a	-ti	1a	-ti	.
.	.	.	.	(8f#X\L	-le-	.	.	.	.	.	.	.	.	.	.	.	.	.
.	.	.	.	8e\J)	.	.	.	.	.	.	.	.	.	.	.	.	.	.
2D\	-lu-	.	.	2f#\	-lu-	4dd\)	.	.	.	.	.	.	.	.	.	.	.	.
.	.	4A\	-lu-	.	.	4cc\	-lu-	.	.	.	.	.	.	.	.	.	.	.
=23	=23	=23	=23	=23	=23	=23	=23	=23	=23	=23	=23	=23	=23	=23	=23	=23	=23	=23
4GG/	-ja	4B\	-ja	4g\	-ja	4b\	-ja	.	1G	E-	1G	E-	.	1g	E-	1g	E-	.
*	*ij	*	*ij	*	*ij	*	*	*	*	*	*	*	*	*	*	*	*	*
8G\	Al-	8d\	Al-	8g\	Al-	8b\	Al-	.	.	.	.	.	.	.	.	.	.	.
8G\	-le-	8d\	-le-	8g\	-le-	8b\	-le-	.	.	.	.	.	.	.	.	.	.	.
2G\	-lu-	2d\	-lu-	2g\	-lu-	2b\	-lu-	.	.	.	.	.	.	.	.	.	.	.
=24	=24	=24	=24	=24	=24	=24	=24	=24	=24	=24	=24	=24	=24	=24	=24	=24	=24	=24
4G\	-ja	4d\	-ja	4g\	-ja	4b\	-ja	.	4G\	-um	4G/	-um	.	4g\	-um	4g\	-um	f
4r	.	4r	.	4r	.	4r	.	.	8G\L	Al-	8B\	Al-	.	8g\	Al-	8dd\	Al-	.
.	.	.	.	.	.	.	.	.	8G\J	-le-	8B\	-le-	.	8g\	-le-	8dd\	-le-	.
2r	.	2r	.	2r	.	2r	.	.	2G\	-lu-	2B\	-lu-	.	2g\	-lu-	2dd\	-lu-	.
=25	=25	=25	=25	=25	=25	=25	=25	=25	=25	=25	=25	=25	=25	=25	=25	=25	=25	=25
1G	Et	1g	Et	1g	Et	1gg	Et	.	4G\	-ja	4B\	-ja	.	4g\	-ja	4dd\	-ja	.
*	*	*	*	*	*	*	*	*	*	*Xij	*	*Xij	*	*	*Xij	*	*	*
.	.	.	.	.	.	.	.	.	4r	.	(8G\L	Al-	.	(8B\L	Al-	4r	.	.
.	.	.	.	.	.	.	.	.	.	.	8A\J)	.	.	8c\J)	.	.	.	.
.	.	.	.	.	.	.	.	.	2r	.	4B\	-le-	.	4d\	-le-	2r	.	.
.	.	.	.	.	.	.	.	.	.	.	(8A\L	-lu-	.	(8c\L	-lu-	.	.	.
.	.	.	.	.	.	.	.	.	.	.	8B\J)	.	.	8d\J)	.	.	.	.
=26	=26	=26	=26	=26	=26	=26	=26	=26	=26	=26	=26	=26	=26	=26	=26	=26	=26	=26
1E	con-	1e	con-	1e	con-	1ee	con-	.	1r	.	2c\	-ja	.	4e\	-ja	4r	.	.
.	.	.	.	.	.	.	.	.	.	.	.	.	.	(8e\L	Al-	(8cc\L	Al-	.
.	.	.	.	.	.	.	.	.	.	.	.	.	.	8f\J)	.	8dd\J)	.	.
.	.	.	.	.	.	.	.	.	.	.	[2c\	Al-	.	4g\	-le-	4ee\	-le-	.
.	.	.	.	.	.	.	.	.	.	.	.	.	.	(8f\L	-lu-	(8dd\L	-lu-	.
.	.	.	.	.	.	.	.	.	.	.	.	.	.	8g\J)	.	8ee\J)	.	.
=27	=27	=27	=27	=27	=27	=27	=27	=27	=27	=27	=27	=27	=27	=27	=27	=27	=27	=27
1D	-sti-	1d	-sti-	1d	-sti-	1dd	-sti-	.	1r	.	4c\]	-le-	.	4a\	-ja	2.ff\	-ja	.
.	.	.	.	.	.	.	.	.	.	.	(8B\L	.	.	4g\	Al-	.	.	.
.	.	.	.	.	.	.	.	.	.	.	8A\J)	.	.	.	.	.	.	.
.	.	.	.	.	.	.	.	.	.	.	2B\	-lu-	.	[2f\	-le-	.	.	.
.	.	.	.	.	.	.	.	.	.	.	.	.	.	.	.	4ee\	Al-	.
=28	=28	=28	=28	=28	=28	=28	=28	=28	=28	=28	=28	=28	=28	=28	=28	=28	=28	=28
1G	-tu-	1g	-tu-	1g	-tu-	1gg	-tu-	.	4r	.	4B\	-ja	.	2f\]	.	2dd\	-le-	.
.	.	.	.	.	.	.	.	.	(8GG/L	Al-	(8B\L	Al-	.	.	.	.	.	.
.	.	.	.	.	.	.	.	.	8AA/J)	.	8c\J)	.	.	.	.	.	.	.
.	.	.	.	.	.	.	.	.	4BB/	-le-	4d\	-le-	.	[2g\	-lu-	[2dd\	-lu-	.
.	.	.	.	.	.	.	.	.	(8AA/L	-lu-	(8c\L	-lu-	.	.	.	.	.	.
.	.	.	.	.	.	.	.	.	8BB/J)	.	8d\J)	.	.	.	.	.	.	.
=29	=29	=29	=29	=29	=29	=29	=29	=29	=29	=29	=29	=29	=29	=29	=29	=29	=29	=29
!!LO:LB:g=original
1E	-is-	1e	-is-	1e	-is-	1ee	-is-	.	2C/	-ja	2.e\	-ja	.	2g\]	.	4dd\]	.	.
.	.	.	.	.	.	.	.	.	.	.	.	.	.	.	.	8cc\L	-ja	.
.	.	.	.	.	.	.	.	.	.	.	.	.	.	.	.	8b\J	.	.
.	.	.	.	.	.	.	.	.	[2C/	Al-	.	.	.	(4e\	-ja	(4cc\	Al-	.
.	.	.	.	.	.	.	.	.	.	.	4c\	Al-	.	8f\L	Al-	8dd\L	.	.
.	.	.	.	.	.	.	.	.	.	.	.	.	.	8g\J)	.	8ee\J)	.	.
=30	=30	=30	=30	=30	=30	=30	=30	=30	=30	=30	=30	=30	=30	=30	=30	=30	=30	=30
1D	-ti	1d	-ti	1d	-ti	1dd	-ti	.	4C/]	-le-	2A\	-le-	.	4f\	-le-	2.ff\	-le-	.
.	.	.	.	.	.	.	.	.	8BB/L	.	.	.	.	8g\L	.	.	.	.
.	.	.	.	.	.	.	.	.	8AA/J	.	.	.	.	8f\J	.	.	.	.
.	.	.	.	.	.	.	.	.	2BB/	-lu-	2G/	-lu-	.	2d\	-lu-	.	.	.
.	.	.	.	.	.	.	.	.	.	.	.	.	.	.	.	8gg\L	-lu-	.
.	.	.	.	.	.	.	.	.	.	.	.	.	.	.	.	8ff\J	.	.
=31	=31	=31	=31	=31	=31	=31	=31	=31	=31	=31	=31	=31	=31	=31	=31	=31	=31	=31
1C	E-	1c	E-	1c	E-	1cc	E-	.	4C/	-ja	4G/	-ja	.	4e\	-ja	4ee\	-ja	.
!	!	!	!	!	!	!	!	!	!	!	!	!	!	!	!	!LO:TX:a:B:t=dol.	!	!
.	.	.	.	.	.	.	.	.	2C/	Su-	2c\	Su-	.	(4e\	Su-	(4cc\	Su-	.
.	.	.	.	.	.	.	.	.	.	.	.	.	.	4f\)	.	4dd\)	.	.
.	.	.	.	.	.	.	.	.	4C/	-per	4c\	-per	.	4f#X\	-per	4dd#X\	-per	.
=32	=32	=32	=32	=32	=32	=32	=32	=32	=32	=32	=32	=32	=32	=32	=32	=32	=32	=32
4C/	-um	4c\	-um	4c\	-um	4cc\	-um	.	2C/	O-	4c\	O-	.	2g\	O-	4ee\	O-	.
4r	.	4r	.	4r	.	4r	.	.	.	.	8e\L	.	.	.	.	8cc\L	.	.
.	.	.	.	.	.	.	.	.	.	.	8d\J	.	.	.	.	8dd\J	.	.
2r	.	2r	.	2r	.	2r	.	.	2AA/	-pe-	2c\	-pe-	.	2cc\	-pe-	4ee\	.	.
.	.	.	.	.	.	.	.	.	.	.	.	.	.	.	.	4ff#X\	-pe-	.
=33	=33	=33	=33	=33	=33	=33	=33	=33	=33	=33	=33	=33	=33	=33	=33	=33	=33	=33
!	!	!	!	!	!	!	!	!	!	!	!	!	!	!	!	!	!	!LO:HP:b
4r	.	4r	.	4r	.	4r	.	.	4GG/	-ra	4d\	-ra	.	4b\	-ra	4gg\	-ra	>
!	!	!	!	!	!	!LO:TX:a:B:t=dol.	!	!	!	!	!	!	!	!	!	!	!	!
*	*	*	*	*	*	*	*	*	*	*ij	*	*ij	*	*	*ij	*	*	*
(4G\	Su-	(4B\	Su-	(4g\	Su-	(4b\	Su-	.	2G\	ma-	2g\	ma-	.	2g\	ma-	2gg\	ma-	.
4A\)	.	4c\)	.	4a\)	.	4cc\)	.	.	.	.	.	.	.	.	.	.	.	.
4A#X\	-per	4c#X\	-per	4a#X\	-per	4cc#X\	-per	.	4G\	-nu-	4g\	-nu-	.	4g\	-nu-	4gg\	-nu-	]
=34	=34	=34	=34	=34	=34	=34	=34	=34	=34	=34	=34	=34	=34	=34	=34	=34	=34	=34
4B\	O-	4d\	O-	4b\	O-	4dd\	O-	.	2.G\	-um	2.g\	-um	.	2.g\	-um	2.gg\	-um	.
8G\L	-pe-	8B\L	-pe-	8g\L	-pe-	(8b\L	-pe-	.	.	.	.	.	.	.	.	.	.	.
8An\J	.	8cn\J	.	8an\J	.	8ccn\J)	.	.	.	.	.	.	.	.	.	.	.	.
4B\	-ra	4d\	-ra	4b\	-ra	4dd\	-ra	.	.	.	.	.	.	.	.	.	.	.
4r	.	4r	.	4r	.	4r	.	.	4C/	tu-	8G/L	tu-	.	4g\	tu-	4ee\	tu-	.
.	.	.	.	.	.	.	.	.	.	.	8A/J	.	.	.	.	.	.	.
=35	=35	=35	=35	=35	=35	=35	=35	=35	=35	=35	=35	=35	=35	=35	=35	=35	=35	=35
1r	.	1r	.	1r	.	1r	.	.	1D	-a-	(2B\	-a-	.	(2.g\	-a-	(2dd\	-a-	.
.	.	.	.	.	.	.	.	.	.	.	2A\)	.	.	.	.	2cc\)	.	.
.	.	.	.	.	.	.	.	.	.	.	.	.	.	4f#X\)	.	.	.	.
=36	=36	=36	=36	=36	=36	=36	=36	=36	=36	=36	=36	=36	=36	=36	=36	=36	=36	=36
4r	.	4r	.	4r	.	4r	.	.	2G\	-rum	2G/	-rum	.	2g\	-rum	2b\	-rum	.
!	!	!	!	!	!	!	!	!LO:HP:b	!	!	!	!	!	!	!	!	!	!
.	.	.	.	.	.	.	.	>	.	.	.	.	.	.	.	.	.	.
2G\	ma-	2B\	ma-	2g\	ma-	2dd\	ma-	.	.	.	.	.	.	.	.	.	.	.
.	.	.	.	.	.	.	.	.	2r	.	2r	.	.	2r	.	2r	.	.
4BB/	-nu-	[4d\	-nu-	4g\	-nu-	4dd\	-nu-	]	.	.	.	.	.	.	.	.	.	.
=37	=37	=37	=37	=37	=37	=37	=37	=37	=37	=37	=37	=37	=37	=37	=37	=37	=37	=37
2C/	-um	4d\]	.	2.g\	-um	2.ee\	-um	.	1r	.	1r	.	.	1r	.	1r	.	.
.	.	2c\	-um	.	.	.	.	.	.	.	.	.	.	.	.	.	.	.
2C/	tu-	.	.	.	.	.	.	.	.	.	.	.	.	.	.	.	.	.
.	.	4e\	tu-	8g\L	tu-	4cc\	tu-	.	.	.	.	.	.	.	.	.	.	.
.	.	.	.	8a\J	.	.	.	.	.	.	.	.	.	.	.	.	.	.
=38	=38	=38	=38	=38	=38	=38	=38	=38	=38	=38	=38	=38	=38	=38	=38	=38	=38	=38
1D	-a-	(2d\	-a-	(2.g\	-a-	(2b\	-a-	.	1r	.	1r	.	.	1r	.	1r	.	.
.	.	2c\)	.	.	.	2a\)	.	.	.	.	.	.	.	.	.	.	.	.
.	.	.	.	4f#X\)	.	.	.	.	.	.	.	.	.	.	.	.	.	.
=39	=39	=39	=39	=39	=39	=39	=39	=39	=39	=39	=39	=39	=39	=39	=39	=39	=39	=39
2G\	-rum	2B\	-rum	2g\	-rum	2g\	-rum	.	(1G	Do-	(1d	Do-	.	[1g	Do-	(1b	Do-	.
2r	.	2r	.	2r	.	2r	.	.	.	.	.	.	.	.	.	.	.	.
=40	=40	=40	=40	=40	=40	=40	=40	=40	=40	=40	=40	=40	=40	=40	=40	=40	=40	=40
1r	.	1r	.	1r	.	1r	.	.	2.C/)	.	2.e\)	.	.	2.g\]	.	2.cc\)	.	.
.	.	.	.	.	.	.	.	.	4C/	-mi	4e\	-mi-	.	4g\	-mi-	4cc\	-mi-	.
=41	=41	=41	=41	=41	=41	=41	=41	=41	=41	=41	=41	=41	=41	=41	=41	=41	=41	=41
!!LO:PB:g=original
4r	.	4r	.	4r	.	4r	.	.	2C/	.	2e\	-ne	.	2g\	-ne	2cc\	-ne	.
2C/	Su-	2c\	Su-	(4e\	Su-	(4cc\	Su-	.	.	.	.	.	.	.	.	.	.	.
.	.	.	.	4f\)	.	4dd\)	.	.	2r	.	2r	.	.	2r	.	2r	.	.
4C/	-per	4c\	-per	4f#X\	-per	4dd#X\	-per	.	.	.	.	.	.	.	.	.	.	.
=42	=42	=42	=42	=42	=42	=42	=42	=42	=42	=42	=42	=42	=42	=42	=42	=42	=42	=42
2C/	O-	4c\	O-	2g\	O-	4ee\	O-	.	1r	.	1r	.	.	1r	.	1r	.	.
.	.	(8e\L	.	.	.	(8cc\L	.	.	.	.	.	.	.	.	.	.	.	.
.	.	8d\J)	.	.	.	8dd\J)	.	.	.	.	.	.	.	.	.	.	.	.
2AA/	-pe-	2c\	-pe-	2cc\	-pe-	4ee\	.	.	.	.	.	.	.	.	.	.	.	.
.	.	.	.	.	.	4ff#X\	-pe-	.	.	.	.	.	.	.	.	.	.	.
=43	=43	=43	=43	=43	=43	=43	=43	=43	=43	=43	=43	=43	=43	=43	=43	=43	=43	=43
4GG/	-ra	4d\	-ra	4b\	-ra	4gg\	-ra	.	4r	.	4r	.	.	4r	.	4r	.	.
2G\	ma-	2g\	ma-	2g\	ma-	2gg\	ma-	.	(4G\	Su-	(4B\	Su-	.	(4g\	Su-	(4b\	Su-	.
.	.	.	.	.	.	.	.	.	4A\)	.	4c\)	.	.	4a\)	.	4cc\)	.	.
4G\	-nu-	4g\	-nu-	4g\	-nu-	4gg\	-nu-	.	4A#X\	-per	4c#X\	-per	.	4a#X\	-per	4cc#X\	-per	.
=44	=44	=44	=44	=44	=44	=44	=44	=44	=44	=44	=44	=44	=44	=44	=44	=44	=44	=44
2.G\	-um	2.g\	-um	2.g\	-um	2.gg\	-um	.	4B\	O-	4d\	O-	.	4b\	O-	4dd\	O-	.
.	.	.	.	.	.	.	.	.	(8G\L	-pe-	(8B\L	-pe-	.	(8g\L	-pe-	(8b\L	-pe-	.
.	.	.	.	.	.	.	.	.	8An\J)	.	8cn\J)	.	.	8an\J)	.	8ccn\J)	.	.
.	.	.	.	.	.	.	.	.	4B\	-ra	4d\	-ra	.	4b\	-ra	4dd\	-ra	.
4C/	tu-	8G/L	tu-	4g\	tu-	4ee\	tu-	.	4r	.	4r	.	.	4r	.	4r	.	.
.	.	8A/J	.	.	.	.	.	.	.	.	.	.	.	.	.	.	.	.
=45	=45	=45	=45	=45	=45	=45	=45	=45	=45	=45	=45	=45	=45	=45	=45	=45	=45	=45
1D	-a-	(2B\	-a-	(2.g\	-a-	(2dd\	-a-	.	1r	.	1r	.	.	1r	.	1r	.	.
.	.	2A\)	.	.	.	2cc\)	.	.	.	.	.	.	.	.	.	.	.	.
.	.	.	.	4f#X\)	.	.	.	.	.	.	.	.	.	.	.	.	.	.
=46	=46	=46	=46	=46	=46	=46	=46	=46	=46	=46	=46	=46	=46	=46	=46	=46	=46	=46
2GG/	-rum	2G/	-rum	2g\	-rum	2b\	-rum	.	4r	.	4r	.	.	4r	.	4r	.	.
!	!	!	!	!	!	!	!	!	!	!	!	!	!	!	!	!	!	!LO:HP:b
.	.	.	.	.	.	.	.	.	2G\	Ma-	2B\	Ma-	.	2g\	Ma-	2dd\	Ma-	>
2r	.	2r	.	2r	.	2r	.	.	.	.	.	.	.	.	.	.	.	.
.	.	.	.	.	.	.	.	.	4BB/	-nu-	[4d\	-nu-	.	4g\	-nu-	4dd\	-nu-	]
=47	=47	=47	=47	=47	=47	=47	=47	=47	=47	=47	=47	=47	=47	=47	=47	=47	=47	=47
1r	.	1r	.	1r	.	1r	.	.	2C/	-um	4d\]	.	.	2.g\	-um	2.ee\	-um	.
.	.	.	.	.	.	.	.	.	.	.	2c\	-um-	.	.	.	.	.	.
.	.	.	.	.	.	.	.	.	2C/	tu-	.	.	.	.	.	.	.	.
.	.	.	.	.	.	.	.	.	.	.	4e\	-tu-	.	8g\L	tu-	4cc\	tu-	.
.	.	.	.	.	.	.	.	.	.	.	.	.	.	8a\J	.	.	.	.
=48	=48	=48	=48	=48	=48	=48	=48	=48	=48	=48	=48	=48	=48	=48	=48	=48	=48	=48
1r	.	1r	.	1r	.	1r	.	.	1D	-a-	(2d\	-a-	.	2.g\	-a-	(2b\	-a-	.
.	.	.	.	.	.	.	.	.	.	.	2c\)	.	.	.	.	2a\)	.	.
.	.	.	.	.	.	.	.	.	.	.	.	.	.	4f#X\	.	.	.	.
=49	=49	=49	=49	=49	=49	=49	=49	=49	=49	=49	=49	=49	=49	=49	=49	=49	=49	=49
(1G	Do-	[1d	Do-	[1g	Do-	(1b	Do-	.	2G\	-rum	2B\	-rum	.	2g\	-rum	2g\	-rum	.
.	.	.	.	.	.	.	.	.	2r	.	2r	.	.	2r	.	2r	.	.
=50	=50	=50	=50	=50	=50	=50	=50	=50	=50	=50	=50	=50	=50	=50	=50	=50	=50	=50
2D\)	.	2d\]	.	2g\]	.	2a\)	.	.	1r	.	1r	.	.	1r	.	1r	.	.
2D\	-mi-	(4d\	-mi-	2f#X\	-mi-	2a\	-mi-	.	.	.	.	.	.	.	.	.	.	.
.	.	4c\)	.	.	.	.	.	.	.	.	.	.	.	.	.	.	.	.
=51	=51	=51	=51	=51	=51	=51	=51	=51	=51	=51	=51	=51	=51	=51	=51	=51	=51	=51
2E\	-ne	2B\	-ne	2g\	-ne	2g\	-ne	.	4r	.	4r	.	.	4r	.	4r	.	.
!	!	!	!	!	!	!	!	!	!	!	!	!	!	!	!	!	!	!LO:DY:b
.	.	.	.	.	.	.	.	.	.	.	.	.	f	.	.	.	.	f
.	.	.	.	.	.	.	.	.	8E\	Al-	8e\	Al-	.	8b\	Al-	8gg\	Al-	.
.	.	.	.	.	.	.	.	.	8E\	-le-	8e\	-le-	.	8b\	-le-	8gg\	-le-	.
4r	.	4r	.	4r	.	4r	.	f	2E\	-lu-	2e\	-lu-	.	2b\	-lu-	2gg\	-lu-	.
8E\	Al-	8B\	Al-	8g\	Al-	8ee\	Al-	.	.	.	.	.	.	.	.	.	.	.
8E\	-le-	8B\	-le-	8g\	-le-	8ee\	-le-	.	.	.	.	.	.	.	.	.	.	.
=52	=52	=52	=52	=52	=52	=52	=52	=52	=52	=52	=52	=52	=52	=52	=52	=52	=52	=52
!!LO:LB:g=original
2C/	-lu-	2A\	-lu-	2g\	-lu-	2ee\	-lu-	.	4C/	-ja	4e\	-ja	.	4a\	-ja	4gg\	-ja	.
.	.	.	.	.	.	.	.	.	8C/	Al-	8e\	Al-	.	8a\	Al-	8gg\	Al-	.
.	.	.	.	.	.	.	.	.	8C/	-le-	8e\	-le-	.	8a\	-le-	8gg\	-le-	.
4C/	-ja	4A\	-ja	4g\	-ja	4ee\	-ja	.	2C/	-lu-	2e\	-lu-	.	2a\	-lu-	2gg\	-lu-	.
8C/	Al-	8A\	Al-	8g\	Al-	8ee\	Al-	.	.	.	.	.	.	.	.	.	.	.
8C/	-le-	8A\	-le-	8g\	-le-	8ee\	-le-	.	.	.	.	.	.	.	.	.	.	.
=53	=53	=53	=53	=53	=53	=53	=53	=53	=53	=53	=53	=53	=53	=53	=53	=53	=53	=53
2D\	-lu-	2A\	-lu-	2f#X\	-lu-	2dd\	-lu-	.	4D\	-ja	4d\	-ja	.	4a\	-ja	4ff#X\	-ja	.
.	.	.	.	.	.	.	.	.	8D\	Al-	8d\	Al-	.	8a\	Al-	8ff#\	Al-	.
.	.	.	.	.	.	.	.	.	8D\	-le-	8d\	-le-	.	8a\	-le-	8ff#\	-le-	.
4D\	-ja	4A\	-ja	4f#\	-ja	4dd\	-ja	.	2D\	-lu-	2c\	-lu-	.	2a\	-lu-	2ff#\	-lu-	.
8D\	Al-	8A\	Al-	8f#\	Al-	8cc\	Al-	.	.	.	.	.	.	.	.	.	.	.
8D\	-le-	8A\	-le-	8f#\	-le-	8cc\	-le-	.	.	.	.	.	.	.	.	.	.	.
=54	=54	=54	=54	=54	=54	=54	=54	=54	=54	=54	=54	=54	=54	=54	=54	=54	=54	=54
2E\	-lu-	2G/	-lu-	2g\	-lu-	2b\	-lu-	.	4E\	-ja	4B\	-ja	.	4g\	-ja	4gg\	-ja	.
.	.	.	.	.	.	.	.	.	8E\	Al-	8e\	Al-	.	8b\	Al-	8gg\	Al-	.
.	.	.	.	.	.	.	.	.	8E\	-le-	8e\	-le-	.	8b\	-le-	8gg\	-le-	.
4E\	-ja	4G/	-ja	4g\	-ja	4b\	-ja	.	2E\	-lu-	2e\	-lu-	.	2b\	-lu-	2gg\	-lu-	.
8E\	Al-	8B\	Al-	8g\	Al-	8ee\	Al-	.	.	.	.	.	.	.	.	.	.	.
8E\	-le-	8B\	-le-	8g\	-le-	8ee\	-le-	.	.	.	.	.	.	.	.	.	.	.
=55	=55	=55	=55	=55	=55	=55	=55	=55	=55	=55	=55	=55	=55	=55	=55	=55	=55	=55
2C/	-lu-	2A\	-lu-	2g\	-lu-	2ee\	-lu-	.	4C/	-ja	4e\	-ja	.	4a\	-ja	4gg\	-ja	.
.	.	.	.	.	.	.	.	.	8C/	Al-	8e\	Al-	.	8a\	Al-	8gg\	Al-	.
.	.	.	.	.	.	.	.	.	8C/	-le-	8e\	-le-	.	8a\	-le-	8gg\	-le-	.
4C/	-ja	4A\	-ja	4g\	-ja	4ee\	-ja	.	2C/	-lu-	2e\	-lu-	.	2a\	-lu-	2gg\	-lu-	.
8C/	Al-	8A\	Al-	8g\	Al-	8ee\	Al-	.	.	.	.	.	.	.	.	.	.	.
8C/	-le-	8A\	-le-	8g\	-le-	8ee\	-le-	.	.	.	.	.	.	.	.	.	.	.
=56	=56	=56	=56	=56	=56	=56	=56	=56	=56	=56	=56	=56	=56	=56	=56	=56	=56	=56
2D\	-lu-	2A\	-lu-	2f#X\	-lu-	2dd\	-lu-	.	4D\	-ja	4d\	-ja	.	4a\	-ja	4ff#X\	-ja	.
.	.	.	.	.	.	.	.	.	8D\	Al-	8d\	Al-	.	8a\	Al-	8ff#\	Al-	.
.	.	.	.	.	.	.	.	.	8D\	-le-	8d\	-le-	.	8a\	-le-	8ff#\	-le-	.
4D\	-ja	4A\	-ja	4f#\	-ja	4dd\	-ja	.	2D\	-lu-	2c\	-lu-	.	2a\	-lu-	2ff#\	-lu-	.
8D\	Al-	8A\	Al-	8f#\	Al-	8cc\	Al-	.	.	.	.	.	.	.	.	.	.	.
8D\	-le-	8A\	-le-	8f#\	-le-	8cc\	-le-	.	.	.	.	.	.	.	.	.	.	.
=57	=57	=57	=57	=57	=57	=57	=57	=57	=57	=57	=57	=57	=57	=57	=57	=57	=57	=57
1G	-lu-	1B	-lu-	1g	-lu-	1b	-lu-	.	4GG/	-ja	4B\	-ja	.	4g\	-ja	4gg\	-ja	.
*	*	*	*	*	*	*	*	*	*	*	*	*	*	*	*Xij	*	*	*
.	.	.	.	.	.	.	.	.	8G\L	Al-	8G\L	Al-	.	8g\L	Al-	8g\L	Al-	.
.	.	.	.	.	.	.	.	.	8A\J	.	8A\J	.	.	8a\J	.	8a\J	.	.
.	.	.	.	.	.	.	.	.	4B\	.	4B\	.	.	4b\	.	4b\	.	.
.	.	.	.	.	.	.	.	.	4c\	.	4c\	.	.	4cc\	.	4cc\	.	.
=58	=58	=58	=58	=58	=58	=58	=58	=58	=58	=58	=58	=58	=58	=58	=58	=58	=58	=58
2G\	-ja	2B\	-ja	2g\	-ja	2b\	-ja	.	(2d\	-le-	(2d\	-le-	.	(2dd\	-le-	(2dd\	-le-	.
2r	.	2r	.	2r	.	2r	.	.	2e\)	.	2e\)	.	.	2ee\)	.	2ee\)	.	.
=59	=59	=59	=59	=59	=59	=59	=59	=59	=59	=59	=59	=59	=59	=59	=59	=59	=59	=59
1r	.	1r	.	1r	.	1r	.	.	1A	-lu-	1c	-lu-	.	1cc	-lu-	2.ff#X\	.	.
.	.	.	.	.	.	.	.	.	.	.	.	.	.	.	.	8ee\L	-lu-	.
.	.	.	.	.	.	.	.	.	.	.	.	.	.	.	.	8ff#\J	.	.
=60	=60	=60	=60	=60	=60	=60	=60	=60	=60	=60	=60	=60	=60	=60	=60	=60	=60	=60
4r	.	4r	.	4r	.	4r	.	.	2G\	-ja	2d\	-ja	.	2b\	-ja	2gg\	-ja	.
8G\L	Al-	8G/L	Al-	8g\L	Al-	8g\L	Al-	.	.	.	.	.	.	.	.	.	.	.
8A\J	.	8A/J	.	8a\J	.	8a\J	.	.	.	.	.	.	.	.	.	.	.	.
4B\	.	4B\	.	4b\	.	4b\	.	.	2r	.	2r	.	.	2r	.	2r	.	.
4c\	.	4c\	.	4cc\	.	4cc\	.	.	.	.	.	.	.	.	.	.	.	.
=61	=61	=61	=61	=61	=61	=61	=61	=61	=61	=61	=61	=61	=61	=61	=61	=61	=61	=61
2c#X\	-le-	2c#X\	-le-	2cc#X\	-le-	2cc#X\	-le-	.	1r	.	1r	.	.	1r	.	1r	.	.
2d\	.	2d\	.	2dd\	.	2dd\	.	.	.	.	.	.	.	.	.	.	.	.
=62	=62	=62	=62	=62	=62	=62	=62	=62	=62	=62	=62	=62	=62	=62	=62	=62	=62	=62
!!LO:PB:g=original
2.D\	.	2.F#X/	.	2.a\	.	2.ccn\	.	.	4r	.	4r	.	.	4r	.	4r	.	.
*	*	*	*	*	*	*	*	*	*	*	*	*	*	*	*ij	*	*	*
.	.	.	.	.	.	.	.	.	8D\	Al-	8d\	Al-	.	8a\	Al-	8ff#X\	Al-	.
.	.	.	.	.	.	.	.	.	8D\	-le-	8d\	-le-	.	8a\	-le-	8ff#\	-le-	.
.	.	.	.	.	.	.	.	.	2D\	-lu-	2d\	-lu-	.	2a\	-lu-	2ff#\	-lu-	.
4D\	-lu-	4A\	-lu-	4a\	-lu-	4cc\	-lu-	.	.	.	.	.	.	.	.	.	.	.
=63	=63	=63	=63	=63	=63	=63	=63	=63	=63	=63	=63	=63	=63	=63	=63	=63	=63	=63
4.G\	-ja	4.B\	-ja	4.g\	-ja	4.b\	-ja	.	4.GG/	-ja	4.d\	-ja	.	4.b\	-ja	4.gg\	-ja	.
8G\	Al-	8B\	Al-	8g\	Al-	8dd\	Al-	.	8G\	Al-	8d\	Al-	.	8b\	Al-	8gg\	Al-	.
4.G\	-le-	4.B\	-le-	4.g\	-le-	4.dd\	-le-	.	4.G\	-le-	4.d\	-le-	.	4.b\	-le-	4.gg\	-le-	.
8G\	-lu-	8B\	-lu-	8g\	-lu-	8dd\	-lu-	.	8G\	-lu-	8d\	-lu-	.	8b\	-lu-	8gg\	-lu-	.
=64	=64	=64	=64	=64	=64	=64	=64	=64	=64	=64	=64	=64	=64	=64	=64	=64	=64	=64
!	!	!	!	!	!	!	!	!LO:HP:b	!	!	!	!	!	!	!	!	!	!LO:HP:b
[1G	-ja	[1B	-ja	[1g	-ja	[1dd	-ja	>	[1G	-ja	[1d	-ja	.	[1b	-ja	[1gg	-ja	>
=65	=65	=65	=65	=65	=65	=65	=65	=65	=65	=65	=65	=65	=65	=65	=65	=65	=65	=65
2G\]	.	2B\]	.	2g\]	.	2dd\]	.	]	2G\]	.	2d\]	.	.	2b\]	.	2gg\]	.	]
2r	.	2r	.	2r	.	2r	.	.	2r	.	2r	.	.	2r	.	2r	.	.
=66	=66	=66	=66	=66	=66	=66	=66	=66	=66	=66	=66	=66	=66	=66	=66	=66	=66	=66
!	!	!	!	!	!	!	!	!LO:DY:rj	!	!	!	!	!	!	!	!	!	!
!	!	!	!	!	!	!	!	!LO:HP:b	!	!	!	!	!	!	!	!	!	!
2.C/	Glo-	2.e\	Glo-	2.g\	Glo-	2.cc\	Glo-	p <	1r	.	1r	.	.	1r	.	1r	.	.
4C/	-ri-	4e\	-ri-	4g\	-ri-	4cc\	-ri-	.	.	.	.	.	.	.	.	.	.	.
=67	=67	=67	=67	=67	=67	=67	=67	=67	=67	=67	=67	=67	=67	=67	=67	=67	=67	=67
!	!	!	!	!	!	!	!	!	!	!	!	!	!	!	!	!	!	!LO:DY:rj
2C/	-a	2e\	-a	2g\	-a	2cc\	-a	[	2.C/	Glo-	2.e\	Glo-	.	2.g\	Glo-	2.cc\	Glo-	p <
2r	.	2r	.	2r	.	2r	.	.	.	.	.	.	.	.	.	.	.	.
.	.	.	.	.	.	.	.	.	4C/	-ri-	4e\	-ri-	.	4g\	-ri-	4cc\	-ri-	.
=68	=68	=68	=68	=68	=68	=68	=68	=68	=68	=68	=68	=68	=68	=68	=68	=68	=68	=68
!	!	!	!	!	!	!	!	!LO:DY:rj	!	!	!	!	!	!	!	!	!	!
!	!	!	!	!	!	!	!	!LO:HP:b	!	!	!	!	!	!	!	!	!	!
2.C/	Glo-	2.c\	Glo-	2.g\	Glo-	2.ee\	Glo-	mf <	2C/	-a	2e\	-a	.	2g\	-a	2cc\	-a	[
.	.	.	.	.	.	.	.	.	2r	.	2r	.	.	2r	.	2r	.	.
4C/	-ri-	4c\	-ri-	4g\	-ri-	4ee\	-ri-	.	.	.	.	.	.	.	.	.	.	.
=69	=69	=69	=69	=69	=69	=69	=69	=69	=69	=69	=69	=69	=69	=69	=69	=69	=69	=69
!	!	!	!	!	!	!	!	!	!	!	!	!	!	!	!	!	!	!LO:DY:rj
2C/	-a	2c\	-a	2g\	-a	2ee\	-a	[	2.C/	Glo-	2.c\	Glo-	.	2.g\	Glo-	2.ee\	Glo-	mf <
2r	.	2r	.	2r	.	2r	.	.	.	.	.	.	.	.	.	.	.	.
.	.	.	.	.	.	.	.	.	4C/	-ri-	4c\	-ri-	.	4g\	-ri-	4ee\	-ri-	.
=70	=70	=70	=70	=70	=70	=70	=70	=70	=70	=70	=70	=70	=70	=70	=70	=70	=70	=70
2C/	Glo-	2G/	Glo-	2e\	Glo-	2cc\	Glo-	.	2C/	-a	2c\	-a	.	2g\	-a	2ee\	-a	[
!	!	!	!	!	!	!	!	!LO:HP:b	!	!	!	!	!	!	!	!	!	!
4BB/	-ri-	4G/	-ri-	4f\	-ri-	4dd\	-ri-	<	2r	.	2r	.	.	2r	.	2r	.	.
4BB-X/	-a	4c\	-a	4g\	-a	4ee\	-a	.	.	.	.	.	.	.	.	.	.	.
=71	=71	=71	=71	=71	=71	=71	=71	=71	=71	=71	=71	=71	=71	=71	=71	=71	=71	=71
2AA/	et	2c\	et	2f\	et	2ff\	et	.	1r	.	1r	.	.	1r	.	1r	.	.
2C/	ho-	2c\	ho-	2e\	ho-	2gg\	ho-	[	.	.	.	.	.	.	.	.	.	.
=72	=72	=72	=72	=72	=72	=72	=72	=72	=72	=72	=72	=72	=72	=72	=72	=72	=72	=72
1F	-no-	1c	-no-	1f	-no-	1aa	-no-	.	2F\	et	2c\	et	.	2f\	et	2a\	et	.
.	.	.	.	.	.	.	.	.	2F\	ho-	2c\	ho-	.	2a\	ho-	2cc\	ho-	.
=73	=73	=73	=73	=73	=73	=73	=73	=73	=73	=73	=73	=73	=73	=73	=73	=73	=73	=73
!	!	!	!	!	!	!	!	!	!	!	!	!	!	!	!	!	!	!LO:HP:b
2F\	-re	2c\	-re	2f\	-re	2aa\	-re	.	1F	-no-	1c	-no-	.	1a	-no-	[1ff	-no-	>
2r	.	2r	.	2r	.	2r	.	.	.	.	.	.	.	.	.	.	.	.
=74	=74	=74	=74	=74	=74	=74	=74	=74	=74	=74	=74	=74	=74	=74	=74	=74	=74	=74
2r	.	2r	.	2r	.	2r	.	.	2F\	-re	2c\	-re	.	2a\	-re	2ff\]	-re	]
!	!	!	!	!	!	!LO:TX:a:B:t=dol.	!	!	!	!	!	!	!	!	!	!	!	!
4A\	co-	4c\	co-	4f\	co-	4ff\	co-	.	2r	.	2r	.	.	2r	.	2r	.	.
4A\	-ro-	4c\	-ro-	4f\	-ro-	4ff\	-ro-	.	.	.	.	.	.	.	.	.	.	.
=75	=75	=75	=75	=75	=75	=75	=75	=75	=75	=75	=75	=75	=75	=75	=75	=75	=75	=75
2B\	-nas-	2d\	-nas-	2g\	-nas-	2ff\	-nas-	.	1r	.	1r	.	.	1r	.	1r	.	.
2c\	-ti	2c\	-ti	2g\	-ti	2ee\	-ti	.	.	.	.	.	.	.	.	.	.	.
=76	=76	=76	=76	=76	=76	=76	=76	=76	=76	=76	=76	=76	=76	=76	=76	=76	=76	=76
!!LO:LB:g=original
1G	E-	(2c\	E-	2.g\	E-	1dd	E-	.	1r	.	1r	.	.	1r	.	1r	.	.
.	.	2B\)	.	.	.	.	.	.	.	.	.	.	.	.	.	.	.	.
.	.	.	.	4f\	.	.	.	.	.	.	.	.	.	.	.	.	.	.
=77	=77	=77	=77	=77	=77	=77	=77	=77	=77	=77	=77	=77	=77	=77	=77	=77	=77	=77
2A\	-um	2c\	-um	2e\	-um	2cc\	-um	.	2r	.	2r	.	.	2r	.	2r	.	.
!	!	!	!	!	!	!	!	!	!	!	!	!	!	!	!	!LO:TX:a:B:t=dol.	!	!
2r	.	2r	.	2r	.	2r	.	.	4A\	co-	4c\	co-	.	4cc\	co-	4ee\	co-	.
.	.	.	.	.	.	.	.	.	4A\	-ro-	4c\	-ro-	.	4cc\	-ro-	4ee\	-ro-	.
=78	=78	=78	=78	=78	=78	=78	=78	=78	=78	=78	=78	=78	=78	=78	=78	=78	=78	=78
1r	.	1r	.	1r	.	1r	.	.	2F\	-nas-	2c\	-nas-	.	2a\	-nas-	2ee\	-nas-	.
.	.	.	.	.	.	.	.	.	2F\	-ti	2d\	-ti	.	2a\	-ti	2dd\	-ti	.
=79	=79	=79	=79	=79	=79	=79	=79	=79	=79	=79	=79	=79	=79	=79	=79	=79	=79	=79
1r	.	1r	.	1r	.	1r	.	.	1G	E-	(2e\	E-	.	2.g\	E-	(2cc\	E-	.
.	.	.	.	.	.	.	.	.	.	.	2d\)	.	.	.	.	2b\)	.	.
.	.	.	.	.	.	.	.	.	.	.	.	.	.	4f\	.	.	.	.
=80	=80	=80	=80	=80	=80	=80	=80	=80	=80	=80	=80	=80	=80	=80	=80	=80	=80	=80
4r	.	4r	.	4r	.	4r	.	f	2C/	-um	2c\	-um	.	2e\	-um	2cc\	-um	.
8C/	All-	8c\	All-	8g\	All-	8ee\	All-	.	.	.	.	.	.	.	.	.	.	.
8C/	-le-	8c\	-le-	8g\	-le-	8ee\	-le-	.	.	.	.	.	.	.	.	.	.	.
2C/	-lu-	2c\	-lu-	2g\	-lu-	2ee\	-lu-	.	2r	.	2r	.	.	2r	.	2r	.	.
=81	=81	=81	=81	=81	=81	=81	=81	=81	=81	=81	=81	=81	=81	=81	=81	=81	=81	=81
4C/	-ja.	4c\	-ja.	4g\	-ja.	4ee\	-ja.	.	4r	.	4r	.	.	4r	.	4r	.	.
.	.	.	.	.	.	.	.	.	.	.	.	.	.	.	.	.	.	f
4r	.	4r	.	4r	.	4r	.	.	8C/	Al-	8e\	Al-	.	8g\	Al-	8cc\	Al-	.
.	.	.	.	.	.	.	.	.	8C/	-le-	8e\	-le-	.	8g\	-le-	8cc\	-le-	.
2r	.	2r	.	2r	.	2r	.	.	2C/	-lu-	2e\	-lu-	.	2g\	-lu-	2cc\	-lu-	.
=82	=82	=82	=82	=82	=82	=82	=82	=82	=82	=82	=82	=82	=82	=82	=82	=82	=82	=82
!	!	!	!	!	!	!LO:TX:a:B:t=mezza voce.	!	!	!	!	!	!	!	!	!	!	!	!
1c	Et	1c	Et	1cc	Et	1cc	Et	.	4C/	-ja	4e\	-ja	.	4g\	-ja	4cc\	-ja	.
*	*	*	*	*	*	*	*	*	*	*Xij	*	*Xij	*	*	*Xij	*	*	*
.	.	.	.	.	.	.	.	.	8C/L	Al-	4r	.	.	4r	.	4r	.	.
.	.	.	.	.	.	.	.	.	8D/J	.	.	.	.	.	.	.	.	.
.	.	.	.	.	.	.	.	.	4E\	-le-	2r	.	.	2r	.	2r	.	.
.	.	.	.	.	.	.	.	.	4F\	-lu-	.	.	.	.	.	.	.	.
=83	=83	=83	=83	=83	=83	=83	=83	=83	=83	=83	=83	=83	=83	=83	=83	=83	=83	=83
1B	con-	1B	con-	1b	con-	1b	con-	.	2.G\	-ja	4r	.	.	1r	.	1r	.	.
.	.	.	.	.	.	.	.	.	.	.	4d\	Al-	.	.	.	.	.	.
.	.	.	.	.	.	.	.	.	.	.	4e\	-le-	.	.	.	.	.	.
.	.	.	.	.	.	.	.	.	4G#X\	Al-	[4d\	.	.	.	.	.	.	.
=84	=84	=84	=84	=84	=84	=84	=84	=84	=84	=84	=84	=84	=84	=84	=84	=84	=84	=84
1A	-sti-	1A	-sti-	1a	-sti-	1a	-sti-	.	2.A\	-le-	4d\]	.	.	2r	.	4r	.	.
.	.	.	.	.	.	.	.	.	.	.	4c\	.	.	.	.	8a\L	Al-	.
.	.	.	.	.	.	.	.	.	.	.	.	.	.	.	.	8b\J	.	.
.	.	.	.	.	.	.	.	.	.	.	4A\	.	.	[2a\	Al-	4cc\	-le-	.
.	.	.	.	.	.	.	.	.	4Gn\	.	8B\L	-lu-	.	.	.	8dd\L	-lu-	.
.	.	.	.	.	.	.	.	.	.	.	8c\J	.	.	.	.	8ee\J	.	.
=85	=85	=85	=85	=85	=85	=85	=85	=85	=85	=85	=85	=85	=85	=85	=85	=85	=85	=85
1d	-tu-	1d	-tu-	1dd	-tu-	1dd	-tu-	.	4F\	.	2A\	-ja	.	4a\]	.	2dd\	-ja	.
.	.	.	.	.	.	.	.	.	4E\	.	.	.	.	4g\	.	.	.	.
.	.	.	.	.	.	.	.	.	4D\	.	2r	.	.	4f\	-le-	2r	.	.
.	.	.	.	.	.	.	.	.	8E\L	.	.	.	.	8g\L	.	.	.	.
.	.	.	.	.	.	.	.	.	8F\J	.	.	.	.	8a\J	.	.	.	.
=86	=86	=86	=86	=86	=86	=86	=86	=86	=86	=86	=86	=86	=86	=86	=86	=86	=86	=86
1B	-is-	1B	-is-	1b	-is-	1b	-is-	.	1G	.	4r	.	.	2b\	.	1r	.	.
.	.	.	.	.	.	.	.	.	.	.	8G\L	Al-	.	.	.	.	.	.
.	.	.	.	.	.	.	.	.	.	.	8A\J	.	.	.	.	.	.	.
.	.	.	.	.	.	.	.	.	.	.	4B\	-le-	.	2g\	-lu-	.	.	.
.	.	.	.	.	.	.	.	.	.	.	4c\	-lu-	.	.	.	.	.	.
=87	=87	=87	=87	=87	=87	=87	=87	=87	=87	=87	=87	=87	=87	=87	=87	=87	=87	=87
!!LO:PB:g=original
1A	-ti	1A	-ti	1a	-ti	1a	-ti	.	2F#X\	.	2.d\	-ja!	.	2a\	-ja!	1r	.	.
.	.	.	.	.	.	.	.	.	2Fn\	-lu-	.	.	.	2r	.	.	.	.
.	.	.	.	.	.	.	.	.	.	.	4d#X\	Al-	.	.	.	.	.	.
=88	=88	=88	=88	=88	=88	=88	=88	=88	=88	=88	=88	=88	=88	=88	=88	=88	=88	=88
(1G#X	E-	(1G#X	E-	(1g#X	E-	(1g#X	E-	.	2E\	-ja!	2.e\	-le-	.	(1b	Al-	2r	.	.
.	.	.	.	.	.	.	.	.	2r	.	.	.	.	.	.	[2ee\	Al-	.
.	.	.	.	.	.	.	.	.	.	.	4dn\	.	.	.	.	.	.	.
=89	=89	=89	=89	=89	=89	=89	=89	=89	=89	=89	=89	=89	=89	=89	=89	=89	=89	=89
1A)	.	1A)	.	1a)	.	1a)	.	.	2.A\	Al-	4c\	.	.	2a\)	.	4ee\]	.	.
.	.	.	.	.	.	.	.	.	.	.	4B\	.	.	.	.	4dd\	-le-	.
.	.	.	.	.	.	.	.	.	.	.	4A\	.	.	[2a\	-le-	(4cc\	-lu-	.
.	.	.	.	.	.	.	.	.	4G\	.	(8B\L	.	.	.	.	8dd\L	.	.
.	.	.	.	.	.	.	.	.	.	.	8c\J	.	.	.	.	8ee\J)	.	.
=90	=90	=90	=90	=90	=90	=90	=90	=90	=90	=90	=90	=90	=90	=90	=90	=90	=90	=90
2A\	-um	2A\	-um	2a\	-um	2a\	-um	.	4F#X\	-le-	2.d\)	.	.	4a\]	.	2dd\	-ja	.
.	.	.	.	.	.	.	.	.	4E\	.	.	.	.	4g\	-lu-	.	.	.
2r	.	2r	.	2r	.	2r	.	.	4D\	.	.	.	.	(4f#X\	.	(2dd\	Al-	.
.	.	.	.	.	.	.	.	.	8E\L	.	4c\	.	.	8g\L	.	.	.	.
.	.	.	.	.	.	.	.	.	8F#\J	.	.	.	.	8a\J)	.	.	.	.
=91	=91	=91	=91	=91	=91	=91	=91	=91	=91	=91	=91	=91	=91	=91	=91	=91	=91	=91
1B	Su-	1B	Su-	1b	Su-	1b	Su-	.	2.G\	.	4B\	.	.	2g\	-ja	4dd\	.	.
.	.	.	.	.	.	.	.	.	.	.	4A\	.	.	.	.	4cc\)	-le	.
.	.	.	.	.	.	.	.	.	.	.	4G\	.	.	2r	.	4b\	lu-	.
.	.	.	.	.	.	.	.	.	4Fn\	-lu-	8A\L	.	.	.	.	8cc\L	.	.
.	.	.	.	.	.	.	.	.	.	.	8B\J	.	.	.	.	8dd\J	.	.
=92	=92	=92	=92	=92	=92	=92	=92	=92	=92	=92	=92	=92	=92	=92	=92	=92	=92	=92
1G	-per	1G	-per	1g	-per	1g	-per	.	2E\	-ja!	1c	-lu-	.	4r	.	2cc\	-ja!	.
.	.	.	.	.	.	.	.	.	.	.	.	.	.	8c\L	Al-	.	.	.
.	.	.	.	.	.	.	.	.	.	.	.	.	.	8d\J	.	.	.	.
.	.	.	.	.	.	.	.	.	2C/	Al-	.	.	.	4e\	-le-	2r	.	.
.	.	.	.	.	.	.	.	.	.	.	.	.	.	4f\	-lu-	.	.	.
=93	=93	=93	=93	=93	=93	=93	=93	=93	=93	=93	=93	=93	=93	=93	=93	=93	=93	=93
(1d	O-	(1d	O-	(1dd	O-	(1dd	O-	.	2BB/	-le-	2d\	-ja	.	2.g\	-ja	1r	.	.
.	.	.	.	.	.	.	.	.	2BB-X/	.	(2d\	Al-	.	.	.	.	.	.
.	.	.	.	.	.	.	.	.	.	.	.	.	.	4g#X\	Al-	.	.	.
=94	=94	=94	=94	=94	=94	=94	=94	=94	=94	=94	=94	=94	=94	=94	=94	=94	=94	=94
2A\)	.	2A\)	.	2a\)	.	2a\)	.	.	2AA/	.	4d\	.	.	2.a\	-le-	1r	.	.
.	.	.	.	.	.	.	.	.	.	.	4c#X\)	.	.	.	.	.	.	.
2A\	-pe-	2A\	-pe-	2a\	-pe-	2a\	-pe-	.	4BBn/	.	4d\	-le-	.	.	.	.	.	.
.	.	.	.	.	.	.	.	.	4C#X/	.	4e\	-lu-	.	4gn\	.	.	.	.
=95	=95	=95	=95	=95	=95	=95	=95	=95	=95	=95	=95	=95	=95	=95	=95	=95	=95	=95
1A	-ra	1A	-ra	1a	-ra	1a	-ra	.	1D	-lu-	2.d\	-ja	.	4f\	.	1r	.	.
.	.	.	.	.	.	.	.	.	.	.	.	.	.	4e\	.	.	.	.
.	.	.	.	.	.	.	.	.	.	.	.	.	.	4d\	.	.	.	.
.	.	.	.	.	.	.	.	.	.	.	4cn\	Al-	.	8e\L	.	.	.	.
.	.	.	.	.	.	.	.	.	.	.	.	.	.	8f\J	.	.	.	.
=96	=96	=96	=96	=96	=96	=96	=96	=96	=96	=96	=96	=96	=96	=96	=96	=96	=96	=96
1r	.	1r	.	1r	.	1r	.	.	2GG/	-ja	2B\	-le-	.	1g	-lu-	4r	.	.
.	.	.	.	.	.	.	.	.	.	.	.	.	.	.	.	8g\L	Al-	.
.	.	.	.	.	.	.	.	.	.	.	.	.	.	.	.	8a\J	.	.
.	.	.	.	.	.	.	.	.	2r	.	2G/	-lu-	.	.	.	4b\	-le-	.
.	.	.	.	.	.	.	.	.	.	.	.	.	.	.	.	4cc\	-lu-	.
=97	=97	=97	=97	=97	=97	=97	=97	=97	=97	=97	=97	=97	=97	=97	=97	=97	=97	=97
!!LO:LB:g=original
1A	ma-	1A	ma-	1a	ma-	1a	ma-	.	1r	.	2F#X/	.	.	2a\	-ja	2.dd\	-ja	.
.	.	.	.	.	.	.	.	.	.	.	2Fn/	-lu-	.	[2a\	Al-	.	.	.
.	.	.	.	.	.	.	.	.	.	.	.	.	.	.	.	4dd#X\	Al-	.
=98	=98	=98	=98	=98	=98	=98	=98	=98	=98	=98	=98	=98	=98	=98	=98	=98	=98	=98
1B	-nu-	1B	-nu-	1b	-nu-	1b	-nu-	.	1r	.	2E/	-ja	.	4a\]	.	2.ee\	-le-	.
.	.	.	.	.	.	.	.	.	.	.	.	.	.	4g#X\	-le-	.	.	.
.	.	.	.	.	.	.	.	.	.	.	4F#X/	Al-	.	4a\	-lu-	.	.	.
.	.	.	.	.	.	.	.	.	.	.	4G#X/	-le-	.	4b\	.	4ddn\	.	.
=99	=99	=99	=99	=99	=99	=99	=99	=99	=99	=99	=99	=99	=99	=99	=99	=99	=99	=99
1c	-um	1c	-um	1cc	-um	1cc	-um	.	1r	.	2.A\	.	.	2e\	-ja	4cc\	.	.
.	.	.	.	.	.	.	.	.	.	.	.	.	.	.	.	4b\	.	.
.	.	.	.	.	.	.	.	.	.	.	.	.	.	[2a\	Al-	4a\	.	.
.	.	.	.	.	.	.	.	.	.	.	4Gn/	.	.	.	.	8b\L	.	.
.	.	.	.	.	.	.	.	.	.	.	.	.	.	.	.	8cc\J	.	.
=100	=100	=100	=100	=100	=100	=100	=100	=100	=100	=100	=100	=100	=100	=100	=100	=100	=100	=100
1A	tu-	1A	tu-	1a	tu-	1a	tu-	.	1r	.	4F#X/	.	.	4a\]	.	2.dd\	.	.
.	.	.	.	.	.	.	.	.	.	.	4E/	.	.	4g\	-le-	.	.	.
.	.	.	.	.	.	.	.	.	.	.	4D/	.	.	4f#X\	-lu-	.	.	.
.	.	.	.	.	.	.	.	.	.	.	8E/L	.	.	8g\L	.	4cc\	.	.
.	.	.	.	.	.	.	.	.	.	.	8F#/J	.	.	8a\J	.	.	.	.
=101	=101	=101	=101	=101	=101	=101	=101	=101	=101	=101	=101	=101	=101	=101	=101	=101	=101	=101
1G	-a-	1G	-a-	1g	-a-	1g	-a-	.	1r	.	2.G/	.	.	(1d	-ja	4b\	.	.
.	.	.	.	.	.	.	.	.	.	.	.	.	.	.	.	4a\	.	.
.	.	.	.	.	.	.	.	.	.	.	.	.	.	.	.	4g\	.	.
.	.	.	.	.	.	.	.	.	.	.	4Fn/	-lu-	.	.	.	8a\L	.	.
.	.	.	.	.	.	.	.	.	.	.	.	.	.	.	.	8b\J	.	.
=102	=102	=102	=102	=102	=102	=102	=102	=102	=102	=102	=102	=102	=102	=102	=102	=102	=102	=102
2G\	-rum	2G/	-rum	2g\	-rum	2g\	-rum	.	4r	.	2E/	-ja	.	4c\)	.	1cc	-lu-	.
.	.	.	.	.	.	.	.	.	8C\L	Al-	.	.	.	8e\L	Al-	.	.	.
.	.	.	.	.	.	.	.	.	8D\J	.	.	.	.	8f\J	.	.	.	.
2r	.	2r	.	2r	.	2r	.	.	4E\	-le-	2r	.	.	4g\	-le-	.	.	.
.	.	.	.	.	.	.	.	.	4F\	-lu-	.	.	.	4a\	-lu-	.	.	.
=103	=103	=103	=103	=103	=103	=103	=103	=103	=103	=103	=103	=103	=103	=103	=103	=103	=103	=103
1r	.	1r	.	1r	.	1r	.	.	2.G\	-ja	1r	.	.	2d\	-ja	1b	-ja	.
.	.	.	.	.	.	.	.	.	.	.	.	.	.	2e\	Al-	.	.	.
.	.	.	.	.	.	.	.	.	4G#X\	Al-	.	.	.	.	.	.	.	.
=104	=104	=104	=104	=104	=104	=104	=104	=104	=104	=104	=104	=104	=104	=104	=104	=104	=104	=104
[1A	Do-	[1A	Do-	[1a	Do-	[1a	Do-	.	2.A\	-le-	1r	.	.	1e	-le-	4cc\	Al-	.
.	.	.	.	.	.	.	.	.	.	.	.	.	.	.	.	4b\	-le-	.
.	.	.	.	.	.	.	.	.	.	.	.	.	.	.	.	4a\	.	.
.	.	.	.	.	.	.	.	.	4Gn\	.	.	.	.	.	.	8b\L	.	.
.	.	.	.	.	.	.	.	.	.	.	.	.	.	.	.	8cc\J	.	.
=105	=105	=105	=105	=105	=105	=105	=105	=105	=105	=105	=105	=105	=105	=105	=105	=105	=105	=105
2A\]	.	2A\]	.	2a\]	.	2a\]	.	.	4F\	.	1r	.	.	4a\	.	2.dd\	.	.
.	.	.	.	.	.	.	.	.	4E\	.	.	.	.	4g\	.	.	.	.
2A\	-mi-	2A\	-mi-	2a\	-mi-	2a\	-mi-	.	4D\	.	.	.	.	4f\	.	.	.	.
.	.	.	.	.	.	.	.	.	8E\L	.	.	.	.	8g\L	.	4cc\	.	.
.	.	.	.	.	.	.	.	.	8F\J	.	.	.	.	8a\J	.	.	.	.
=106	=106	=106	=106	=106	=106	=106	=106	=106	=106	=106	=106	=106	=106	=106	=106	=106	=106	=106
2B\	-ne	2B\	-ne	2b\	-ne	2b\	-ne	.	1G	.	4r	.	.	1g	-lu-	1b	.	.
.	.	.	.	.	.	.	.	.	.	.	8G\L	Al-	.	.	.	.	.	.
.	.	.	.	.	.	.	.	.	.	.	8A\J	.	.	.	.	.	.	.
2r	.	2r	.	2r	.	2r	.	.	.	.	4B\	-le-	.	.	.	.	.	.
.	.	.	.	.	.	.	.	.	.	.	4c\	-lu-	.	.	.	.	.	.
=107	=107	=107	=107	=107	=107	=107	=107	=107	=107	=107	=107	=107	=107	=107	=107	=107	=107	=107
1r	.	1r	.	1r	.	1r	.	.	2F#X\	.	2.d\	-ja	.	2a\	-ja	1a	-lu-	.
.	.	.	.	.	.	.	.	.	2Fn\	.	.	.	.	2r	.	.	.	.
.	.	.	.	.	.	.	.	.	.	.	4d#X\	Al-	.	.	.	.	.	.
=108	=108	=108	=108	=108	=108	=108	=108	=108	=108	=108	=108	=108	=108	=108	=108	=108	=108	=108
!!LO:PB:g=original
1B	Do-	1B	Do-	1b	Do-	1b	Do-	.	2E\	-ja	2.e\	-le-	.	2r	.	2g#X\	-ja	.
.	.	.	.	.	.	.	.	.	2r	.	.	.	.	(2g#X\	Al-	[2ee\	Al-	.
.	.	.	.	.	.	.	.	.	.	.	4dn\	.	.	.	.	.	.	.
=109	=109	=109	=109	=109	=109	=109	=109	=109	=109	=109	=109	=109	=109	=109	=109	=109	=109	=109
1c	.	1c	.	1cc	.	1cc	.	.	2.A\	Al-	4c\	.	.	2a\)	.	4ee\]	.	.
.	.	.	.	.	.	.	.	.	.	.	4B\	.	.	.	.	4dd\	-le-	.
.	.	.	.	.	.	.	.	.	.	.	4A\	.	.	[2a\	-le-	4cc\	-lu-	.
.	.	.	.	.	.	.	.	.	4G\	.	8B\L	.	.	.	.	8dd\L	.	.
.	.	.	.	.	.	.	.	.	.	.	8c\J	.	.	.	.	8ee\J	.	.
=110	=110	=110	=110	=110	=110	=110	=110	=110	=110	=110	=110	=110	=110	=110	=110	=110	=110	=110
1A	.	1A	.	1a	.	1a	.	.	4F#X\	-le-	2.d\	.	.	4a\]	.	2dd\	-ja	.
.	.	.	.	.	.	.	.	.	4E\	.	.	.	.	4g\	.	.	.	.
.	.	.	.	.	.	.	.	.	4D\	.	.	.	.	4f#X\	-lu-	[2dd\	Al-	.
.	.	.	.	.	.	.	.	.	8E\L	.	4c\	.	.	8g\L	.	.	.	.
.	.	.	.	.	.	.	.	.	8F#\J	.	.	.	.	8a\J	.	.	.	.
=111	=111	=111	=111	=111	=111	=111	=111	=111	=111	=111	=111	=111	=111	=111	=111	=111	=111	=111
2B\	.	2B\	.	2b\	.	2b\	.	.	2.G\	.	4B\	.	.	2g\	-ja	4dd\]	.	.
.	.	.	.	.	.	.	.	.	.	.	4A\	.	.	.	.	4cc\	-le-	.
2d\	-mi-	2d\	-mi-	2dd\	-mi-	2dd\	-mi-	.	.	.	4G/	.	.	[2g\	Al-	4b\	-lu-	.
.	.	.	.	.	.	.	.	.	4Fn\	.	8A\L	.	.	.	.	8cc\L	.	.
.	.	.	.	.	.	.	.	.	.	.	8B\J	.	.	.	.	8dd\J	.	.
=112	=112	=112	=112	=112	=112	=112	=112	=112	=112	=112	=112	=112	=112	=112	=112	=112	=112	=112
2.c\	-ne	2.c\	-ne	2.cc\	-ne	2.cc\	-ne	.	4E\	.	2.c\	.	.	4g\]	.	2cc\	-ja	.
.	.	.	.	.	.	.	.	.	4D\	.	.	.	.	4fn\	-le-	.	.	.
.	.	.	.	.	.	.	.	.	4C\	.	.	.	.	4e\	-lu-	2cc\	Al-	.
4r	.	4r	.	4r	.	4r	.	.	8D\L	.	[4B\	.	.	8f\L	.	.	.	.
.	.	.	.	.	.	.	.	.	8E\J	.	.	.	.	8g\J	.	.	.	.
=113	=113	=113	=113	=113	=113	=113	=113	=113	=113	=113	=113	=113	=113	=113	=113	=113	=113	=113
1r	.	1r	.	1r	.	1r	.	.	2.F\	.	4B\]	.	.	4.f\	-ja	2.cc\	-le-	.
.	.	.	.	.	.	.	.	.	.	.	4A\	.	.	.	.	.	.	.
.	.	.	.	.	.	.	.	.	.	.	.	.	.	8g\	Al-	.	.	.
.	.	.	.	.	.	.	.	.	.	.	2d\	-lu-	.	4a\	-le-	.	.	.
.	.	.	.	.	.	.	.	.	4G\	-lu-	.	.	.	8g\L	-lu-	4b\	-lu-	.
.	.	.	.	.	.	.	.	.	.	.	.	.	.	8f\J	.	.	.	.
=114	=114	=114	=114	=114	=114	=114	=114	=114	=114	=114	=114	=114	=114	=114	=114	=114	=114	=114
!	!	!	!	!	!	!	!	!LO:DY:b	!	!	!	!	!	!	!	!	!	!
4r	.	4r	.	4r	.	4r	.	f	2A-X\	-ja	2c\	-ja!	.	2e-X\	-ja	2cc\	-ja	.
8A-X\	Al-	8c\	Al-	8a-X\	Al-	8ee-X\	Al-	.	.	.	.	.	.	.	.	.	.	.
8A-\	-le-	8c\	-le-	8a-\	-le-	8ee-\	-le-	.	.	.	.	.	.	.	.	.	.	.
2A-\	-lu-	2c\	-lu-	2a-\	-lu-	2ee-\	-lu-	.	4r	.	4r	.	.	4r	.	4r	.	.
!	!	!	!	!	!	!	!	!	!	!	!	!	!	!	!	!	!	!LO:DY:b
.	.	.	.	.	.	.	.	.	.	.	.	.	.	.	.	.	.	f
*	*	*	*	*	*	*	*	*	*	*ij	*	*ij	*	*	*ij	*	*	*
.	.	.	.	.	.	.	.	.	8A-\	Al-	8e-X\	Al-	.	8cc\	Al-	8aa-X\	Al-	.
.	.	.	.	.	.	.	.	.	8A-\	-le-	8e-\	-le-	.	8cc\	-le-	8aa-\	-le-	.
=115	=115	=115	=115	=115	=115	=115	=115	=115	=115	=115	=115	=115	=115	=115	=115	=115	=115	=115
4A-X\	-ja	4c\	-ja	4a-X\	-ja	4ee-X\	-ja	.	2A-X\	-lu-	2e-X\	-lu-	.	2cc\	-lu-	2aa-X\	-lu-	.
2A-\	co-	2A-X/	co-	2a-\	co-	2a-X\	co-	.	.	.	.	.	.	.	.	.	.	.
.	.	.	.	.	.	.	.	.	4A-\	-ja	4e-\	-ja	.	4cc\	-ja	4aa-\	-ja	.
4G-X\	-ro-	4G-X/	-ro-	4g-X\	-ro-	4g-X\	-ro-	.	8AA-y/	Al-	8c\	Al-	.	8a-X\	Al-	8ee-X\	Al-	.
.	.	.	.	.	.	.	.	.	8AA-/	-le-	8c\	-le-	.	8a-\	-le-	8ee-\	-le-	.
=116	=116	=116	=116	=116	=116	=116	=116	=116	=116	=116	=116	=116	=116	=116	=116	=116	=116	=116
!	!	!	!	!	!	!	!	!LO:HP:b	!	!	!	!	!	!	!	!	!	!
2F\	-nas-	2F/	-nas-	2f\	-nas-	2f/	-nas-	>	2D-X\	-lu-	2d-X\	-lu-	.	2a-X\	-lu-	2ff\	-lu-	.
2A-X\	-ti	2A-X\	-ti	2a-X\	-ti	2a-X\	-ti	]	4D-\	-ja	4d-\	-ja	.	4a-\	-ja	4ff\	-ja	.
.	.	.	.	.	.	.	.	.	4r	.	4r	.	.	4r	.	4r	.	.
=117	=117	=117	=117	=117	=117	=117	=117	=117	=117	=117	=117	=117	=117	=117	=117	=117	=117	=117
!!LO:LB:g=originaloriginal
!	!	!	!	!	!	!	!	!LO:HP:b	!	!	!	!	!	!	!	!LO:TX:a:B:t=dol.	!	!
2D-X\	E-	2D-X/	E-	2d-X\	E-	2d-X/	E-	>	2.d-X\	Glo-	2.f\	Glo-	.	2.a-X\	Glo-	2.ff\	Glo-	.
4D-\	-um	4D-/	-um	4d-\	-um	4d-/	-um	]	.	.	.	.	.	.	.	.	.	.
4r	.	4r	.	4r	.	4r	.	.	4c\	-ri-	4f\	-ri-	.	4an\	-ri-	4ee-X\	-ri-	.
=118	=118	=118	=118	=118	=118	=118	=118	=118	=118	=118	=118	=118	=118	=118	=118	=118	=118	=118
1r	.	1r	.	1r	.	1r	.	.	2B-X\	-a	2f\	-a	.	2b-X\	-a	2dd-X\	-a	.
.	.	.	.	.	.	.	.	.	4B-\	et	4f\	et	.	4f\	et	4dd-\	et	.
.	.	.	.	.	.	.	.	.	4A-X\	ho-	4f\	ho-	.	4f\	ho-	4cc\	ho-	.
=119	=119	=119	=119	=119	=119	=119	=119	=119	=119	=119	=119	=119	=119	=119	=119	=119	=119	=119
1r	.	1r	.	1r	.	1r	.	.	2G\	-no-	2f\	-no-	.	1g	-no-	1b-X	-no-	.
.	.	.	.	.	.	.	.	.	2c\	.	2en\	.	.	.	.	.	.	.
=120	=120	=120	=120	=120	=120	=120	=120	=120	=120	=120	=120	=120	=120	=120	=120	=120	=120	=120
!	!	!	!	!	!	!	!	!LO:DY:b	!	!	!	!	!	!	!	!	!	!
4r	.	4r	.	4r	.	4r	.	f	2c#X\	-re	2e\	-re	.	2g\	-re	2an\	-re	.
8An\	Al-	8c#X\	Al-	8an\	Al-	8een\	Al-	.	.	.	.	.	.	.	.	.	.	.
8A\	-le-	8c#\	-le-	8a\	-le-	8ee\	-le-	.	.	.	.	.	.	.	.	.	.	.
!	!	!	!	!	!	!	!	!	!	!	!	!	!	!	!	!	!	!LO:DY:b
2A\	-lu-	2c#\	-lu-	2a\	-lu-	2ee\	-lu-	.	4r	.	4r	.	.	4r	.	4r	.	f
.	.	.	.	.	.	.	.	.	8An\	Al-	8e\	Al-	.	8cc#X\	Al-	8aa\	Al-	.
.	.	.	.	.	.	.	.	.	8A\	-le-	8e\	-le-	.	8cc#\	-le-	8aa\	-le-	.
=121	=121	=121	=121	=121	=121	=121	=121	=121	=121	=121	=121	=121	=121	=121	=121	=121	=121	=121
4A\	-ja	4c#X\	-ja	4a\	-ja	4ee\	-ja	.	2A\	-lu-	2e\	-lu-	.	2cc#X\	-lu-	2aa\	-lu-	.
2A\	co-	2A\	co-	2a\	co-	2a\	co-	.	.	.	.	.	.	.	.	.	.	.
.	.	.	.	.	.	.	.	.	4A\	-ja	4e\	-ja	.	4cc#\	-ja	4aa\	-ja	.
4G\	-ro-	4G/	-ro-	4g\	-ro-	4g\	-ro-	.	8AA/	Al-	8c#X\	Al-	.	8a\	Al-	8ee\	Al-	.
.	.	.	.	.	.	.	.	.	8AA/	-le-	8c#\	-le-	.	8a\	-le-	8ee\	-le-	.
=122	=122	=122	=122	=122	=122	=122	=122	=122	=122	=122	=122	=122	=122	=122	=122	=122	=122	=122
2F#X\	-nas-	2F#X/	-nas-	2f#X\	-nas-	2f#X/	-nas-	.	2D\	-lu-	2d\	-lu-	.	2a\	-lu-	2ff#X\	-lu-	.
2A\	-ti	2A\	-ti	2a\	-ti	2a\	-ti	.	4D\	-ja	4d\	-ja	.	4a\	-ja	4ff#\	-ja	.
.	.	.	.	.	.	.	.	.	4r	.	4r	.	.	4r	.	4r	.	.
=123	=123	=123	=123	=123	=123	=123	=123	=123	=123	=123	=123	=123	=123	=123	=123	=123	=123	=123
!	!	!	!	!	!	!	!	!LO:HP:b	!	!	!	!	!	!	!	!LO:TX:a:B:t=dol.	!	!
2D\	E-	2D/	E-	2d\	E-	2d/	E-	>	2.d\	Glo-	2.f#X\	Glo-	.	2.a\	Glo-	2.ff#X\	Glo-	.
4D\	-um	4D/	-um	4d\	-um	4d/	-um	]	.	.	.	.	.	.	.	.	.	.
4r	.	4r	.	4r	.	4r	.	.	4c#X\	-ri-	4f#\	-ri-	.	4a#X\	-ri-	4ee\	-ri-	.
=124	=124	=124	=124	=124	=124	=124	=124	=124	=124	=124	=124	=124	=124	=124	=124	=124	=124	=124
1r	.	1r	.	1r	.	1r	.	.	2B\	-a	2f#X\	-a	.	2b\	-a	2dd\	-a	.
.	.	.	.	.	.	.	.	.	4B\	et	4f#\	et	.	4f#X\	et	4dd\	et	.
.	.	.	.	.	.	.	.	.	4A\	ho	4f#\	ho	.	4f#\	ho	4cc#X\	ho	.
=125	=125	=125	=125	=125	=125	=125	=125	=125	=125	=125	=125	=125	=125	=125	=125	=125	=125	=125
1r	.	1r	.	1r	.	1r	.	.	2G#X\	no-	2f#X\	no-	.	(1g#X	no-	(1b	no-	.
.	.	.	.	.	.	.	.	.	(2c#X\	-re	(2e#X\	-re	.	.	.	.	.	.
=126	=126	=126	=126	=126	=126	=126	=126	=126	=126	=126	=126	=126	=126	=126	=126	=126	=126	=126
!	!	!	!	!	!	!	!	!LO:DY:b	!	!	!	!	!	!	!	!	!	!
4r	.	4r	.	4r	.	4r	.	f	2d\)	.	2fn\)	.	.	2a-X\)	-re	2b-X\)	-re	.
8B-X\	Al-	8d\	Al-	8b-X\	Al-	8ff\	Al-	.	.	.	.	.	.	.	.	.	.	.
8B-\	-le-	8d\	-le-	8b-\	-le-	8ff\	-le-	.	.	.	.	.	.	.	.	.	.	.
!	!	!	!	!	!	!	!	!	!	!	!	!	!	!	!	!	!	!LO:DY:b
2B-\	-lu-	2d\	-lu-	2b-\	-lu-	2ff\	-lu-	.	4r	.	4r	.	.	4r	.	4r	.	f
.	.	.	.	.	.	.	.	.	8B-X\	Al-	8f\	Al-	.	8dd\	Al-	8bb-X\	Al-	.
.	.	.	.	.	.	.	.	.	8B-\	-le-	8f\	-le-	.	8dd\	-le-	8bb-\	-le-	.
=127	=127	=127	=127	=127	=127	=127	=127	=127	=127	=127	=127	=127	=127	=127	=127	=127	=127	=127
4B-X\	-ja	4d\	-ja	4b-X\	-ja	4ff\	-ja	.	2B-X\	-lu-	2f\	-lu-	.	2dd\	-lu-	2bb-X\	-lu-	.
8B-\	Al-	8f\	Al-	8b-\	Al-	8dd\	Al-	.	.	.	.	.	.	.	.	.	.	.
8B-\	-le-	8f\	-le-	8b-\	-le-	8dd\	-le-	.	.	.	.	.	.	.	.	.	.	.
2B-\	-lu-	2f\	-lu-	2b-\	-lu-	2dd\	-lu-	.	4B-\	-ja	4f\	-ja	.	4dd\	-ja	4bb-\	-ja	.
.	.	.	.	.	.	.	.	.	8BB-y/	Al-	8d\	Al-	.	8b-X\	Al-	8ff\	Al-	.
.	.	.	.	.	.	.	.	.	8BB-/	-le-	8d\	-le-	.	8b-\	-le-	8ff\	-le-	.
=128	=128	=128	=128	=128	=128	=128	=128	=128	=128	=128	=128	=128	=128	=128	=128	=128	=128	=128
!!LO:PB:g=original
4.E-X\	-ja	4.g\	-ja	4.b-X\	-ja	4.ee-X\	-ja	.	2E-X\	-lu-	2e-X\	-lu-	.	2b-X\	-lu-	2gg\	-lu-	.
8E-\	Al-	8B-X\	Al-	8g\	Al-	8ee-\	Al-	.	.	.	.	.	.	.	.	.	.	.
4.E-\	-le-	4.B-\	-le-	4.g\	-le-	4.ee-\	-le-	.	4E-\	-ja	4e-\	-ja	.	4b-\	-ja	4gg\	-ja	.
.	.	.	.	.	.	.	.	.	4E-\	Al-	4e-\	Al-	.	4b-\	Al-	4gg\	Al-	.
8E-\	-lu-	8B-\	-lu-	8g\	-lu-	8ee-\	-lu-	.	.	.	.	.	.	.	.	.	.	.
=129	=129	=129	=129	=129	=129	=129	=129	=129	=129	=129	=129	=129	=129	=129	=129	=129	=129	=129
2.E-X\	-ja	2.B-X\	-ja	2.g\	-ja	2.ee-X\	-ja	.	2.E-X\	-le-	2.e-X\	-le-	.	2.b-X\	-le-	2.gg\	-le-	.
4r	.	4r	.	4r	.	4r	.	.	4E-\	-lu-	4e-\	-lu-	.	4b-\	-lu-	4gg\	-lu-	>
=130	=130	=130	=130	=130	=130	=130	=130	=130	=130	=130	=130	=130	=130	=130	=130	=130	=130	=130
1r	.	1r	.	1r	.	1r	.	.	2.E-X\	-ja!	2.e-X\	-ja!	.	2.b-X\	-ja!	2.gg\	-ja!	]
.	.	.	.	.	.	.	.	.	4r	.	4r	.	.	4r	.	4r	.	.
=131	=131	=131	=131	=131	=131	=131	=131	=131	=131	=131	=131	=131	=131	=131	=131	=131	=131	=131
!	!	!	!	!	!	!LO:TX:a:B:t=dol.	!	!	!	!	!	!	!	!	!	!	!	!
2.E-X\	co-	2.B-X\	co-	2.g\	co-	2.gg\	co-	.	1r	.	1r	.	.	1r	.	1r	.	.
4D\	-ro-	4Bn\	-ro-	4g\	-ro-	4ff\	-ro-	.	.	.	.	.	.	.	.	.	.	.
=132	=132	=132	=132	=132	=132	=132	=132	=132	=132	=132	=132	=132	=132	=132	=132	=132	=132	=132
2.C/	-nas-	2.c\	-nas-	2.g\	-nas-	2.ee-X\	-nas-	.	1r	.	1r	.	.	1r	.	1r	.	.
4BB-X/	-ti	4d\	-ti	4g\	-ti	4dd\	-ti	.	.	.	.	.	.	.	.	.	.	.
=133	=133	=133	=133	=133	=133	=133	=133	=133	=133	=133	=133	=133	=133	=133	=133	=133	=133	=133
1AA-X	E-	2.e-X\	E-	2g\	E-	1cc	E-	.	1r	.	1r	.	.	1r	.	1r	.	.
.	.	.	.	2f#X\	.	.	.	.	.	.	.	.	.	.	.	.	.	.
.	.	4c\	.	.	.	.	.	.	.	.	.	.	.	.	.	.	.	.
=134	=134	=134	=134	=134	=134	=134	=134	=134	=134	=134	=134	=134	=134	=134	=134	=134	=134	=134
2GG/	-um	2d\	-um	2g\	-um	2bn\	-um	.	4r	.	4r	.	.	4r	.	4r	.	.
!	!	!	!	!	!	!	!	!	!	!	!	!	!	!	!	!LO:TX:a:B:t=dol.	!	!
.	.	.	.	.	.	.	.	.	2G\	Et	2g\	Et	.	2g\	Et	2gg\	Et	.
2r	.	2r	.	2r	.	2r	.	.	.	.	.	.	.	.	.	.	.	.
.	.	.	.	.	.	.	.	.	4F\	con-	4f\	con-	.	4f\	con-	4ff\	con-	.
=135	=135	=135	=135	=135	=135	=135	=135	=135	=135	=135	=135	=135	=135	=135	=135	=135	=135	=135
1r	.	1r	.	1r	.	1r	.	.	2En\	-sti-	2en\	-sti-	.	2en\	-sti-	2een\	-sti-	.
.	.	.	.	.	.	.	.	.	2G\	-tu-	2g\	-tu-	.	2g\	-tu-	2gg\	-tu-	.
=136	=136	=136	=136	=136	=136	=136	=136	=136	=136	=136	=136	=136	=136	=136	=136	=136	=136	=136
1r	.	1r	.	1r	.	1r	.	.	2C/	-is-	2c\	-is-	.	2c\	-is-	2cc\	-is-	.
.	.	.	.	.	.	.	.	.	2c\	-ti	[2c\	-ti	.	2g\	-ti	2ee\	-ti	.
=137	=137	=137	=137	=137	=137	=137	=137	=137	=137	=137	=137	=137	=137	=137	=137	=137	=137	=137
1r	.	1r	.	1r	.	1r	.	.	1G	E-	2c\]	.	.	1g	E-	(2.dd\	E-	.
.	.	.	.	.	.	.	.	.	.	.	2B\	E-	.	.	.	.	.	.
.	.	.	.	.	.	.	.	.	.	.	.	.	.	.	.	8ee\L	.	.
.	.	.	.	.	.	.	.	.	.	.	.	.	.	.	.	8ff\J)	.	.
=138	=138	=138	=138	=138	=138	=138	=138	=138	=138	=138	=138	=138	=138	=138	=138	=138	=138	=138
!	!	!	!	!	!	!	!	!LO:DY:b	!	!	!	!	!	!	!	!	!	!
(2C/	Do-	(2e\	Do-	(2g\	Do-	[1cc	Do-	p	2C/	-um	2c\	-um	.	2g\	-um	2ee\	-um	.
2AA/	.	2d#X\	.	2f#X\	.	.	.	.	2r	.	2r	.	.	2r	.	2r	.	.
=139	=139	=139	=139	=139	=139	=139	=139	=139	=139	=139	=139	=139	=139	=139	=139	=139	=139	=139
2GG/)	.	2e\)	.	2g\)	.	2cc\]	.	.	4r	.	4r	.	.	4r	.	4r	.	.
.	.	.	.	.	.	.	.	.	2G\	Su-	2g\	Su-	.	2g\	Su-	2gg\	Su-	.
2GG/	-mi-	2dn\	-mi-	2g\	-mi-	2b\	-mi-	.	.	.	.	.	.	.	.	.	.	.
.	.	.	.	.	.	.	.	.	4F\	-per	4f\	-per	.	4f\	-per	4ff\	-per	.
=140	=140	=140	=140	=140	=140	=140	=140	=140	=140	=140	=140	=140	=140	=140	=140	=140	=140	=140
2C/	-ne	2c\ 2e	-ne	2g\	-ne	2cc\	-ne	.	4.E\	o-	4.e\	o-	.	4.e\	o-	4.ee\	o-	.
.	.	.	.	.	.	.	.	.	8E\	-pe-	8e\	-pe-	.	8e\	-pe-	8ee\	-pe-	.
2r	.	2r	.	2r	.	2r	.	.	2G\	-ra	2g\	-ra	.	2g\	-ra	2gg\	-ra	.
=141	=141	=141	=141	=141	=141	=141	=141	=141	=141	=141	=141	=141	=141	=141	=141	=141	=141	=141
!!LO:LB:g=original
1r	.	1r	.	1r	.	1r	.	.	4.C/	ma-	4.c\	ma-	.	4.c\	ma-	4.cc\	ma-	.
.	.	.	.	.	.	.	.	.	8C/	-nu-	8c\	-nu-	.	8c\	-nu-	8cc\	-nu-	.
.	.	.	.	.	.	.	.	.	4c\	-um	4c\	-um	.	4g\	-um	4ee\	-um	.
.	.	.	.	.	.	.	.	.	4c\	tu-	4c\	tu-	.	4g\	tu-	4ee\	tu-	.
=142	=142	=142	=142	=142	=142	=142	=142	=142	=142	=142	=142	=142	=142	=142	=142	=142	=142	=142
1r	.	1r	.	1r	.	1r	.	.	1G	-a-	2c\	-a-	.	1g	-a-	2.dd\	-a-	.
.	.	.	.	.	.	.	.	.	.	.	2B\	.	.	.	.	.	.	.
.	.	.	.	.	.	.	.	.	.	.	.	.	.	.	.	8ee\L	.	.
.	.	.	.	.	.	.	.	.	.	.	.	.	.	.	.	8ff\J	.	.
=143	=143	=143	=143	=143	=143	=143	=143	=143	=143	=143	=143	=143	=143	=143	=143	=143	=143	=143
(2C/	Do-	(2e\	Do-	(2g\	Do-	[1cc	Do-	.	2C/	-rum	2c\	-rum	.	2g\	-rum	2ee\	-rum	.
2AA/	.	2d#X\	.	2f#X\	.	.	.	.	2r	.	2r	.	.	2r	.	2r	.	.
=144	=144	=144	=144	=144	=144	=144	=144	=144	=144	=144	=144	=144	=144	=144	=144	=144	=144	=144
2GG/)	.	2e\)	.	2.g\)	.	2cc\]	.	.	1r	.	1r	.	.	1r	.	1r	.	.
2GG/	-mi-	2dn\	-mi-	.	.	2b\	-mi-	.	.	.	.	.	.	.	.	.	.	.
.	.	.	.	4fn\	-mi-	.	.	.	.	.	.	.	.	.	.	.	.	.
=145	=145	=145	=145	=145	=145	=145	=145	=145	=145	=145	=145	=145	=145	=145	=145	=145	=145	=145
!	!	!	!	!	!	!	!	!	!	!	!	!	!	!	!	!	!	!LO:DY:rj
2C/	-ne	2c\	-ne	2e\	-ne	2cc\	-ne	.	1C	Do-	[1c	Do-	.	1g	Do-	1ee	Do-	pp
2r	.	2r	.	2r	.	2r	.	.	.	.	.	.	.	.	.	.	.	.
=146	=146	=146	=146	=146	=146	=146	=146	=146	=146	=146	=146	=146	=146	=146	=146	=146	=146	=146
1r	.	1r	.	1r	.	1r	.	.	1GG	-mi-	2c\]	-mi-	.	1g	-mi-	1dd	-mi-	.
.	.	.	.	.	.	.	.	.	.	.	2B\	.	.	.	.	.	.	.
=147	=147	=147	=147	=147	=147	=147	=147	=147	=147	=147	=147	=147	=147	=147	=147	=147	=147	=147
4r	.	4r	.	4r	.	4r	.	p	2AA/	-ne	2c\	-ne	.	2f#X\	-ne	2cc\	-ne	.
8A\	Al-	8c\	Al-	8f#X\	Al-	8cc\	Al-	.	.	.	.	.	.	.	.	.	.	.
8A\	-le-	8c\	-le-	8f#\	-le-	8cc\	-le-	<	.	.	.	.	.	.	.	.	.	.
2A\	-lu-	2c\	-lu-	2f#\	-lu-	2cc\	-lu-	.	4r	.	4r	.	.	4r	.	4r	.	p
.	.	.	.	.	.	.	.	[	8A\	Al-	8c\	Al-	.	8f#\	Al-	8cc\	Al-	.
.	.	.	.	.	.	.	.	.	8A\	-le-	8c\	-le-	.	8f#\	-le-	8cc\	-le-	<
=148	=148	=148	=148	=148	=148	=148	=148	=148	=148	=148	=148	=148	=148	=148	=148	=148	=148	=148
4A\	-ja	4c\	-ja	4f#X\	-ja	4cc\	-ja	.	2A\	-lu-	2c\	-lu-	.	2f#X\	-lu-	2cc\	-lu-	[
8F#X\	Al-	8c\	Al-	8a\	Al-	8ee-X\	Al-	mf	.	.	.	.	.	.	.	.	.	.
8F#\	-le-	8c\	-le-	8a\	-le-	8ee-\	-le-	<	.	.	.	.	.	.	.	.	.	.
2F#\	-lu-	2c\	-lu-	2a\	-lu-	2ee-\	-lu-	.	4A\	-ja	4c\	-ja	.	4f#\	-ja	4cc\	-ja	mf
.	.	.	.	.	.	.	.	[	8F#X\	Al-	8c\	Al-	.	8a\	Al-	8ee-X\	Al-	.
.	.	.	.	.	.	.	.	.	8F#\	-le-	8c\	-le-	.	8a\	-le-	8ee-\	-le-	<
=149	=149	=149	=149	=149	=149	=149	=149	=149	=149	=149	=149	=149	=149	=149	=149	=149	=149	=149
4G\	-ja	4B-X\	-ja	4b-X\	-ja	4ee-X\	-ja	.	2G\	-lu-	2B-X\	-lu-	.	2b-X\	-lu-	2ee-X\	-lu-	[
8G\	Al-	8e-X\	Al-	8b-\	Al-	8ee-\	Al-	f	.	.	.	.	.	.	.	.	.	.
8G\	-le-	8e-\	-le-	8b-\	-le-	8ee-\	-le-	.	.	.	.	.	.	.	.	.	.	.
2A-X\	-lu-	2e-\	-lu-	2cc\	-lu-	2ee-\	-lu-	.	4A-X\	-ja	4c\	-ja	.	4a-X\	-ja	4ee-\	-ja	.
.	.	.	.	.	.	.	.	.	8A-\	Al-	8c\	Al-	.	8a-\	Al-	8ee-\	Al-	f
.	.	.	.	.	.	.	.	.	8A-\	-le-	8c\	-le-	.	8a-\	-le-	8ee-\	-le-	.
=150	=150	=150	=150	=150	=150	=150	=150	=150	=150	=150	=150	=150	=150	=150	=150	=150	=150	=150
4An\	-ja	4c\	-ja	4cc\	-ja	4ee-X\	-ja	.	2An\	-lu-	2c\	-lu-	.	2f#X\	-lu-	2ee-X\	-lu-	.
8A\	Al-	8f#X\	Al-	8cc\	Al-	8ee-\	Al-	ff	.	.	.	.	.	.	.	.	.	.
8A\	-le-	8f#\	-le-	8cc\	-le-	8ee-\	-le-	.	.	.	.	.	.	.	.	.	.	.
2B-X\	-lu-	2g\	-lu-	2b-X\	-lu-	2ee-\	-lu-	.	4B-X\	-ja	4B-X\	-ja	.	4g\	-ja	4ee-\	-ja	.
.	.	.	.	.	.	.	.	.	8B-\	Al-	8B-\	Al-	.	8g\	Al-	8ee-\	Al-	ff
.	.	.	.	.	.	.	.	.	8B-\	-le-	8B-\	-le-	.	8g\	-le-	8ee-\	-le-	.
=151	=151	=151	=151	=151	=151	=151	=151	=151	=151	=151	=151	=151	=151	=151	=151	=151	=151	=151
!!LO:PB:g=original
4Bn\	-ja	4fn\	-ja	4a-X\	-ja	4dd\	-ja	.	2Bn\	-lu-	2d\	-lu-	.	2a-X\	-lu-	2ff\	-lu-	.
8B\	Al-	8f\	Al-	8a-\	Al-	8dd\	Al-	.	.	.	.	.	.	.	.	.	.	.
8B\	-le-	8f\	-le-	8a-\	-le-	8dd\	-le-	.	.	.	.	.	.	.	.	.	.	.
2c\	-lu-	2e-X\	-lu-	2g\	-lu-	2ee-X\	-lu-	.	4c\	-ja	4e-X\	-ja	.	4g\	-ja	4ee-X\	-ja	.
.	.	.	.	.	.	.	.	.	8c\	Al-	8c\	Al-	.	8g\	Al-	8ee-\	Al-	.
.	.	.	.	.	.	.	.	.	8c\	-le-	8c\	-le-	.	8g\	-le-	8ee-\	-le-	.
=152	=152	=152	=152	=152	=152	=152	=152	=152	=152	=152	=152	=152	=152	=152	=152	=152	=152	=152
4A-X\	-ja	4f\	-ja	4cc\	-ja	4ff\	-ja	.	2A-X\	-lu-	2c\	-lu-	.	2a-X\	-lu-	2ff\	-lu-	.
8A-\	Al-	8f\	Al-	8cc\	Al-	8ff\	Al-	.	.	.	.	.	.	.	.	.	.	.
8A-\	-le-	8f\	-le-	8cc\	-le-	8ff\	-le-	.	.	.	.	.	.	.	.	.	.	.
2A-\	-lu-	2f\	-lu-	2bn\	-lu-	2dd\	-lu-	.	4A-\	-ja	4d\	-ja	.	4f\	-ja	4ff\	-ja	.
.	.	.	.	.	.	.	.	.	8A-\	Al-	8d\	Al-	.	8bn\	Al-	8ff\	Al-	.
.	.	.	.	.	.	.	.	.	8A-\	-le-	8d\	-le-	.	8b\	-le-	8ff\	-le-	.
=153	=153	=153	=153	=153	=153	=153	=153	=153	=153	=153	=153	=153	=153	=153	=153	=153	=153	=153
4A-X\	-ja	4f\	-ja	4b\	-ja	4dd\	-ja	.	2A-X\	-lu-	2d\	-lu-	.	2b\	-lu-	2ff\	-lu-	.
8A-\	Al-	8f\	Al-	8b\	Al-	8dd\	Al-	.	.	.	.	.	.	.	.	.	.	.
8A-\	-le-	8f\	-le-	8b\	-le-	8dd\	-le-	.	.	.	.	.	.	.	.	.	.	.
2A-\	-lu-	2f\	-lu-	2b\	-lu-	2dd\	-lu-	.	4A-\	-ja	4d\	-ja	.	4b\	-ja	4ff\	-ja	.
.	.	.	.	.	.	.	.	.	8A-\	Al-	8d\	Al-	.	8b\	Al-	8ff\	Al-	.
.	.	.	.	.	.	.	.	.	8A-\	-le-	8d\	-le-	.	8b\	-le-	8ff\	-le-	.
=154	=154	=154	=154	=154	=154	=154	=154	=154	=154	=154	=154	=154	=154	=154	=154	=154	=154	=154
4G\	-ja	4en\	-ja	4cc\	-ja	4een\	-ja	.	2G\	-lu-	2e\	-lu-	.	2cc\	-lu-	2een\	-lu-	.
8G\	Al-	8c\	Al-	8g\	Al-	8ee\	Al-	.	.	.	.	.	.	.	.	.	.	.
8G\	-le-	8c\	-le-	8g\	-le-	8ee\	-le-	.	.	.	.	.	.	.	.	.	.	.
2G\	-lu)-	2c\	-lu-	2g\	-lu-	2ee\	-lu-	.	4G\	-ja)	4e\	-ja	.	4cc\	-ja	4ee\	-ja	.
.	.	.	.	.	.	.	.	.	4G\	Al-	8c\	Al-	.	8g\	Al-	8ee\	Al-	.
.	.	.	.	.	.	.	.	.	.	.	8c\	-le-	.	8g\	-le-	8ee\	-le-	.
=155	=155	=155	=155	=155	=155	=155	=155	=155	=155	=155	=155	=155	=155	=155	=155	=155	=155	=155
!	!	!	!	!	!	!	!	!	!	!	!	!	!	!	!	!	!	!LO:HP:b
4G\	-ja	4c\	-ja	4g\	-ja	4ee\	-ja	.	[1G	-le-	2e\	-lu-	.	2g\	-lu-	2gg\	-lu-	>
4G\	Al-	4r	.	4r	.	4r	.	.	.	.	.	.	.	.	.	.	.	.
[2G\	-le-	4r	.	4r	.	4r	.	.	.	.	4c\	-ja	.	4g\	-ja	4een\	-ja	]
.	.	8e\	Al-	8g\	Al-	8cc\	Al-	.	.	.	4r	.	.	4r	.	4r	.	.
.	.	8e\	-le-	8g\	-le-	8cc\	-le-	.	.	.	.	.	.	.	.	.	.	.
=156	=156	=156	=156	=156	=156	=156	=156	=156	=156	=156	=156	=156	=156	=156	=156	=156	=156	=156
1G]	.	2g\	-lu-	2g\	-lu-	2ee\	-lu-	>	1G]	.	2r	.	.	2r	.	2r	.	.
.	.	4e\	-ja	4g\	-ja	4cc\	-ja	]	.	.	2c\	Al-	.	2g\	Al-	2ee\	Al-	.
.	.	4r	.	4r	.	4r	.	.	.	.	.	.	.	.	.	.	.	.
=157	=157	=157	=157	=157	=157	=157	=157	=157	=157	=157	=157	=157	=157	=157	=157	=157	=157	=157
2.G\	.	1r	.	1r	.	1r	.	.	2.G\	.	2.c\	-le-	.	2.g\	-le-	2.dd\	-le-	.
4G\	-lu-	.	.	.	.	.	.	.	4G\	-lu-	4B\	-lu-	.	4g\	-lu-	4dd\	-lu-	.
=158	=158	=158	=158	=158	=158	=158	=158	=158	=158	=158	=158	=158	=158	=158	=158	=158	=158	=158
*	*	*	*	*	*	*	*	*	*	*	*^	*^	*	*	*	*	*	*
2G\	-ja	4r	.	4r	.	4r	.	.	2.G\	-ja	2.B\	2.ryy	-ja	.	.	2.g\	-ja	2.dd\	-ja	.
*	*	*	*	*	*	*	*	*	*	*	*	*	*Xij	*	*	*	*Xij	*	*	*
.	.	8g\	Al-	8g\	Al-	8gg\	Al-	.	.	.	.	.	.	.	.	.	.	.	.	.
.	.	8g\	-le-	8g\	-le-	8gg\	-le-	.	.	.	.	.	.	.	.	.	.	.	.	.
2r	.	2g\	-lu-	2g\	-lu-	2gg\	-lu-	.	.	.	.	.	.	.	.	.	.	.	.	.
!	!	!	!	!	!	!	!	!	!	!	!LO:TX:a:t=P:problem=dolny głos ma na tekście znak powtórki, górny ma podpisany tekst nad systemem w t.158-164	!LO:TX:b:t=P:problem=dolny tekst nie wyświetla się pochylony, a powinien, bo jest *ij	!	!	!	!	!	!	!	!
!	!	!	!	!	!	!	!	!	!	!	!	!	!	!	!	!	!	!	!	!LO:DY:b
*	*	*	*	*	*	*	*	*	*	*	*	*	*above	*ij	*	*	*	*	*	*
.	.	.	.	.	.	.	.	.	8G\	Al-	4g/	8d\	Al-	Al-	.	8b\	Al-	4gg\	Al-	f
.	.	.	.	.	.	.	.	.	8G\	-le-	.	8d\	.	-le-	.	8b\	-le-	.	.	.
=159	=159	=159	=159	=159	=159	=159	=159	=159	=159	=159	=159	=159	=159	=159	=159	=159	=159	=159	=159	=159
4r	.	4e\	-ja	4g\	-ja	4gg\	-ja	.	4c\	-lu-	[1g	4e\	-le-	-lu-	.	4cc\	-lu-	[1gg	-le-	.
8G\	Al-	8B\	Al-	8g\	Al-	8dd\	Al-	.	4G\	-ja	.	4d\	.	-ja	.	4b\	-ja	.	.	.
8G\	-le-	8B\	-le-	8g\	-le-	8dd\	-le-	.	.	.	.	.	.	.	.	.	.	.	.	.
4c\	-lu-	4c\	-lu-	4g\	-lu-	4ee\	-lu-	.	4r	.	.	4rG	.	.	.	4r	.	.	.	.
4G\	-ja	4B\	-ja	4g\	-ja	4dd\	-ja	.	8G\	Al-	.	8d\	.	Al-	.	8b\	Al-	.	.	.
.	.	.	.	.	.	.	.	.	8G\	-le-	.	8d\	.	-le-	.	8b\	-le-	.	.	.
=160	=160	=160	=160	=160	=160	=160	=160	=160	=160	=160	=160	=160	=160	=160	=160	=160	=160	=160	=160	=160
!!LO:LB:g=original
4r	.	4r	.	4r	.	4r	.	.	4c\	-lu-	1g_	4e\	.	-lu-	.	4cc\	-lu-	1gg_	.	.
8G\	Al-	8B\	Al-	8g\	Al-	8dd\	Al-	.	4G\	-ja	.	4d\	.	-ja	.	4b\	-ja	.	.	.
8G\	-le-	8B\	-le-	8g\	-le-	8dd\	-le-	.	.	.	.	.	.	.	.	.	.	.	.	.
4c\	-lu-	4c\	-lu-	4g\	-lu-	4ee\	-lu-	.	4r	.	.	4r	.	.	.	4r	.	.	.	.
4G\	-ja	4B\	-ja	4g\	-ja	4dd\	-ja	.	8G\	Al-	.	8d\	.	Al-	.	8b\	Al-	.	.	.
.	.	.	.	.	.	.	.	.	8G\	-le-	.	8d\	.	-le-	.	8b\	-le-	.	.	.
=161	=161	=161	=161	=161	=161	=161	=161	=161	=161	=161	=161	=161	=161	=161	=161	=161	=161	=161	=161	=161
4r	.	4r	.	4r	.	4r	.	.	4c\	-lu-	1g_	4e\	.	-lu-	.	(4cc\	-lu-	1gg_	.	.
8G\	Al-	8B\	Al-	8g\	Al-	8dd\	Al-	.	4G\	-ja	.	4d\	.	.	.	4b\)	.	.	.	.
8G\	-le-	8B\	-le-	8g\	-le-	8dd\	-le-	.	.	.	.	.	.	.	.	.	.	.	.	.
(4c\	-lu-	(4c\	-lu-	2g\	-lu-	(4ee\	-lu-	.	4r	.	.	4c\	.	-ja	.	4cc\	-ja	.	.	.
4G\)	.	4B\)	.	.	.	4dd\)	.	.	8G\	Al-	.	8d\	.	Al-	.	8b\	Al-	.	.	.
.	.	.	.	.	.	.	.	.	8G\	-le-	.	8d\	.	-le-	.	8b\	-le-	.	.	.
=162	=162	=162	=162	=162	=162	=162	=162	=162	=162	=162	=162	=162	=162	=162	=162	=162	=162	=162	=162	=162
4E\	-ja	4c\	-ja	4g\	-ja	4cc\	-ja	.	(2c\	-lu-	1g_	2e\	.	-lu-	.	(2cc\	-lu-	1gg_	.	.
4r	.	4r	.	4r	.	4r	.	.	.	.	.	.	.	.	.	.	.	.	.	.
2r	.	2r	.	2r	.	2r	.	.	2G\)	.	.	2d\	.	.	.	2b\)	.	.	.	.
=163	=163	=163	=163	=163	=163	=163	=163	=163	=163	=163	=163	=163	=163	=163	=163	=163	=163	=163	=163	=163
!	!	!	!	!	!	!	!	!	!	!	!	!	!	!	!	!	!	!	!	!LO:HP:b
1r	.	1r	.	1r	.	1r	.	.	2E\	-ja	2.g/]	2c\	.	-ja	.	2cc\	-ja	2.gg\]	.	>
*	*	*	*	*	*	*	*	*	*	*Xij	*	*	*	*Xij	*	*	*	*	*	*
.	.	.	.	.	.	.	.	.	2r	.	.	2r	.	.	.	2r	.	.	.	.
.	.	.	.	.	.	.	.	.	.	.	4e/	.	-lu-	.	.	.	.	4ee\	-lu-	]
=164	=164	=164	=164	=164	=164	=164	=164	=164	=164	=164	=164	=164	=164	=164	=164	=164	=164	=164	=164	=164
2r	.	2r	.	2r	.	2r	.	.	1r	.	2c/	1r	-ja	.	.	1r	.	2cc\	-ja	.
2c\	Al-	2c\	Al-	2g\	Al-	2ee\	Al-	.	.	.	2r	.	.	.	.	.	.	2r	.	.
*	*	*	*	*	*	*	*	*	*	*	*	*	*v	*v	*	*	*	*	*	*
*	*	*	*	*	*	*	*	*	*	*	*v	*v	*	*	*	*	*	*	*
=165	=165	=165	=165	=165	=165	=165	=165	=165	=165	=165	=165	=165	=165	=165	=165	=165	=165	=165
2A\	-le-	[1c	-le-	2f\	-le-	2ff\	-le-	.	1r	.	1r	.	.	1r	.	1r	.	.
2G\	.	.	.	2g\	.	2ee\	.	.	.	.	.	.	.	.	.	.	.	.
=166	=166	=166	=166	=166	=166	=166	=166	=166	=166	=166	=166	=166	=166	=166	=166	=166	=166	=166
1F	.	1c]	.	1a	.	[1dd	.	.	1r	.	1r	.	.	1r	.	1r	.	.
=167	=167	=167	=167	=167	=167	=167	=167	=167	=167	=167	=167	=167	=167	=167	=167	=167	=167	=167
1G	-lu-	2c\	-lu-	2.g\	-lu-	1dd]	-lu-	.	4r	.	4r	.	.	4r	.	4r	.	.
*	*	*	*	*	*	*	*	*	*	*ij	*	*ij	*	*	*ij	*	*	*
.	.	.	.	.	.	.	.	.	8G\	Al-	8g\	Al-	.	8g\	Al-	8gg\	Al-	.
.	.	.	.	.	.	.	.	.	8G\	-le-	8g\	-le-	.	8g\	-le-	8gg\	-le-	.
.	.	2B\	.	.	.	.	.	.	2G\	-lu-	2g\	-lu-	.	2g\	-lu-	[2gg\	-lu-	.
.	.	.	.	4f\	.	.	.	.	.	.	.	.	.	.	.	.	.	.
=168	=168	=168	=168	=168	=168	=168	=168	=168	=168	=168	=168	=168	=168	=168	=168	=168	=168	=168
4C/	-ja	4c\	-ja	4e\	-ja	4cc\	-ja	.	4c\	-ja	4e\	-ja	.	4g\	-ja	4gg\]	-ja	.
8C/	Al-	8c\	Al-	8cc\	Al-	8cc\	Al-	.	4r	.	4r	.	.	4r	.	4r	.	.
8C/	-le-	8c\	-le-	8cc\	-le-	8cc\	-le-	.	.	.	.	.	.	.	.	.	.	.
2C/	-lu-	2c\	-lu-	2cc\	-lu-	2cc\	-lu-	.	2C/	Al-	2c\	Al-	.	2g\	Al-	2ee\	Al-	.
=169	=169	=169	=169	=169	=169	=169	=169	=169	=169	=169	=169	=169	=169	=169	=169	=169	=169	=169
4F\	-ja	4c\	-ja	4a\	-ja	4cc\	-ja	.	[1F	-le-	[1c	-le-	.	[1a	-le-	[1ff	-le-	.
4r	.	4r	.	4r	.	4r	.	.	.	.	.	.	.	.	.	.	.	.
2FF/ 2F	Al-	2A\	Al-	2f\	Al-	2cc\	Al-	.	.	.	.	.	.	.	.	.	.	.
=170	=170	=170	=170	=170	=170	=170	=170	=170	=170	=170	=170	=170	=170	=170	=170	=170	=170	=170
(>1FF\ 1F\	-le-	[1A	-le-	[1f	-le-	[1cc	-le-	.	(1F]	.	1c_	.	.	1a_	.	1ff_	.	.
=171	=171	=171	=171	=171	=171	=171	=171	=171	=171	=171	=171	=171	=171	=171	=171	=171	=171	=171
2.C/)	.	2.A\]	.	2.f\]	.	2.cc\]	.	.	2.C/)	.	2.c\]	.	.	2.a\]	.	2.ff\]	.	.
4C/	-lu-	4G\ 4c	-lu-	4e\ 4g	-lu-	4cc\	-lu-	.	4C/	-lu-	4c\	-lu-	.	4g\	-lu-	4ee\	-lu-	.
=172	=172	=172	=172	=172	=172	=172	=172	=172	=172	=172	=172	=172	=172	=172	=172	=172	=172	=172
0C	-ja.	0G 0c	-ja.	0e 0g	-ja.	0cc	-ja.	.	0C	-ja.	0c	-ja.	.	0g	-ja.	0ee	-ja.	.
==	==	==	==	==	==	==	==	==	==	==	==	==	==	==	==	==	==	==
*-	*-	*-	*-	*-	*-	*-	*-	*-	*-	*-	*-	*-	*-	*-	*-	*-	*-	*-
!!!system-decoration: {(g1),(g2)}
!!!RDF**kern: > = above
!!!RDF**kern: < = below
!!!ENC: Andrzej Borzym
!!!END: 2020-03-01
!!!ENC: Marta Lawrence
!!!END: 2020-04-01
